!!!!SEGMENT: pl-sa--240-a-vi-44--001_sacchini-antonio--symphonia-toni-d-allegro-spirituoso.krn
!!!cenid: 17xx:659
!!!COM: Sacchini, Antonio
!!!COM-rismid: pe30002777
!!!CDT: 1730/06/14-1786/10/06
!!!CNT: Italian
!!!OPR: Symphonia toni D
!!!OTL: Allegro spirituoso
!!!OMV: 001
!!!PDT:
!!!AGN: Secular
!!!SMS-siglum: PL-SA
!!!SMS-shelfmark: 240/A VI 44
!!!SMS-shelfwork: 001-001 M
!!!SMS-variant:
!!!SMS-altvar:
!!!NIFC-rismid: 1001035313
!!!URL-scan: http://bc.bdsandomierz.pl/dlibra/publication/1592/edition/1560/content
!!!ONB-nifc: UWAGA: części Symphonii: Allegro spirituoso, Andante, Allegro
!!!key:
**kern	**dynam	**kern	**dynam	**kern	**dynam	**kern	**dynam	**kern	**kern	**kern	**kern
*part8	*part8	*part7	*part7	*part6	*part6	*part5	*part5	*part4	*part3	*part2	*part1
*	*	*group3	*	*group3	*	*group3	*	*group2	*group2	*group1	*group1
*staff8	*	*staff7	*	*staff6	*	*staff5	*	*staff4	*staff3	*staff2	*staff1
*Iempty	*	*Iviola	*	*Ivioln	*	*Ivioln	*	*Iempty	*Icor	*Ioboe	*Ioboe
*I"Fundamento	*	*I"Viola obligata	*	*I"Violino Secundo	*	*I"Violino Primo	*	*I"Cornu Secondo ex D	*I"Corno Primo.	*I"Oboi 2da	*I"Oboi 1ma
*I'org	*	*I'vla	*	*I'vl II	*	*I'vl I	*	*I'cor II	*I'cor I	*I'ob II	*I'ob I
*clefF4	*	*clefC3	*	*clefG2	*	*clefG2	*	*clefG2	*clefG2	*clefG2	*clefG2
*Trd0c0	*	*	*	*	*	*	*	*Trd6c10	*Trd6c10	*	*
*k[f#c#]	*	*k[f#c#]	*	*k[f#c#]	*	*k[f#c#]	*	*k[]	*k[]	*k[f#c#]	*k[f#c#]
*D:	*	*D:	*	*D:	*	*D:	*	*D:	*D:	*D:	*D:
*M4/4	*	*M4/4	*	*M4/4	*	*M4/4	*	*M4/4	*M4/4	*M4/4	*M4/4
*met(c)	*	*met(c)	*	*met(c)	*	*met(c)	*	*met(c)	*met(c)	*met(c)	*met(c)
!	!	!	!	!	!	!	!	!	!LO:TX:a:i:t=In delusine	!	!
!LO:TX:a:i:t=Allo Spirituso	!	!LO:TX:a:i:t=Allo&colon; spirituso	!	!LO:TX:a:i:t=Allegro spiritoso	!	!LO:TX:a:i:t=Allegro Spiritoso	!	!	!LO:TX:a:i:t=Allo	!LO:TX:a:i:t=Allo	!LO:TX:a:i:t=Allo
!LO:TX:b:i:t=Symphonia	!	!LO:TX:b:i:t=Sinphonia	!	!	!	!	!	!LO:TX:b:i:t=Symhonia	!LO:TX:a:i:t=Sinfonia	!LO:TX:b:i:t=Symhonia	!LO:TX:b:i:t=Symhonia
4.D\	.	4.d\	.	4.d/	.	4.d/	.	2r	2r	2r	2r
8D\	.	8d\	.	8d/	.	8d/	.	.	.	.	.
=1	=1	=1	=1	=1	=1	=1	=1	=1	=1	=1	=1
!	!	!	!	!	!	!	!	!LO:TX:a:t=12	!	!LO:TX:a:t=12	!LO:TX:a:t=12
4C#/	.	4c#\	.	4c#/	.	4c#/	.	00r	00r	00r	00r
4r	.	4r	.	4r	.	4r	.	.	.	.	.
4.G\	.	4.g\	.	4.g/	.	4.g/	.	.	.	.	.
8G\	.	8g\	.	8g/	.	8g/	.	.	.	.	.
=2	=2	=2	=2	=2	=2	=2	=2	=2	=2	=2	=2
4F#\	.	4f#\	.	4f#/	.	4f#/	.	.	.	.	.
4r	.	4r	.	4r	.	4r	.	.	.	.	.
4.d\	.	4.dd\	.	4.dd\	.	4.dd\	.	.	.	.	.
8d\	.	8dd\	.	8dd\	.	8dd\	.	.	.	.	.
=3	=3	=3	=3	=3	=3	=3	=3	=3	=3	=3	=3
4c#\	.	4cc#\	.	4cc#\	.	4cc#\	.	.	.	.	.
4A\	.	4a\	.	4a\	.	4a\	.	.	.	.	.
4d\	.	4dd\	.	4dd\	.	4dd\	.	.	.	.	.
4d\	.	4dd\	.	4dd\	.	4dd\	.	.	.	.	.
=4	=4	=4	=4	=4	=4	=4	=4	=4	=4	=4	=4
4A\	.	4a\	.	4a/	.	4a/	.	.	.	.	.
4r	.	4r	.	4r	.	4r	.	.	.	.	.
4.D/	.	4.d\	.	4.d/	.	4.d/	.	.	.	.	.
8D/	.	8d\	.	8d/	.	8d/	.	.	.	.	.
=5	=5	=5	=5	=5	=5	=5	=5	=5	=5	=5	=5
4C#/	.	4c#\	.	4c#/	.	4c#/	.	00r	00r	00r	00r
4r	.	4r	.	4r	.	4r	.	.	.	.	.
4.G\	.	4.g\	.	4.g/	.	4.g/	.	.	.	.	.
8G\	.	8g\	.	8g/	.	8g/	.	.	.	.	.
!LO:LB:g=original	!	!	!	!	!	!	!	!	!	!	!
=6	=6	=6	=6	=6	=6	=6	=6	=6	=6	=6	=6
4F#\	.	4f#\	.	4f#/	.	4f#/	.	.	.	.	.
4r	.	4r	.	4r	.	4r	.	.	.	.	.
4.d\	.	4.dd\	.	4.dd\	.	4.dd\	.	.	.	.	.
8d\	.	8dd\	.	8dd\	.	8dd\	.	.	.	.	.
!	!	!LO:LB:g=original	!	!	!	!	!	!	!	!	!
=7	=7	=7	=7	=7	=7	=7	=7	=7	=7	=7	=7
4B\	.	4b\	.	4b\	.	4b\	.	.	.	.	.
4G\	.	4g\	.	4g\	.	4g/	.	.	.	.	.
4A\	.	4a\	.	4a/	.	4a/	.	.	.	.	.
4AA/	.	4A/	.	4A/	.	4A/	.	.	.	.	.
=8	=8	=8	=8	=8	=8	=8	=8	=8	=8	=8	=8
*	*	*	*	*^	*	*	*	*	*	*	*
8D\L	.	8d\	.	8d/	8ryy	.	4d/	.	.	.	.	.
8D\	.	4f#\	.	4aa/	4a\	.	.	.	.	.	.	.
8D\	.	.	.	.	.	.	4r	.	.	.	.	.
8D\J	.	4f#\	.	4aa/	4a\	.	.	.	.	.	.	.
*tremolo	*	*	*	*	*	*	*	*	*	*	*	*
*2\right	*	*	*	*	*	*	*	*	*	*	*	*
8F#\L	.	.	.	.	.	.	2r	.	.	.	.	.
8F#\	.	4f#\	.	4aa/	4a\	.	.	.	.	.	.	.
8F#\	.	.	.	.	.	.	.	.	.	.	.	.
8F#\J	.	[8f#\	.	[8aa/	8a\	.	.	.	.	.	.	.
=9	=9	=9	=9	=9	=9	=9	=9	=9	=9	=9	=9	=9
!LO:TX:t=P:problem:brak taktu	!	!	!	!	!	!	!	!	!	!	!	!
1ryy	.	8f#\]	.	8aa/]	1a	.	4.ddd\	.	00r	00r	00r	00r
.	.	4f#\	.	4aa/	.	.	.	.	.	.	.	.
.	.	8f#\	.	4aa/	.	.	16ccc#\LL	.	.	.	.	.
.	.	.	.	.	.	.	16bb\JJ	.	.	.	.	.
*	*	*2\right	*	*	*	*	*	*	*	*	*	*
.	.	2d\	.	.	.	.	4aa\	.	.	.	.	.
.	.	.	.	4aa/	.	.	.	.	.	.	.	.
.	.	.	.	.	.	.	8r	.	.	.	.	.
.	.	.	.	[>8aa/	.	.	8ff#\	p	.	.	.	.
!	!	!	!	!	!	!	!LO:LB:g=original	!	!	!	!	!
=10	=10	=10	=10	=10	=10	=10	=10	=10	=10	=10	=10	=10
.	.	.	.	.	.	.	8qqaa/	.	.	.	.	.
!	!LO:DY:t=pn	!	!LO:DY:t=pn	!	!	!	!	!	!	!	!	!
8E\L	p	1c#	p	8aa/]	1a	.	4gg\	.	.	.	.	.
8E\	.	.	.	4aa/	.	.	.	.	.	.	.	.
8E\	.	.	.	.	.	.	8ff#\L	.	.	.	.	.
8E\J	.	.	.	4aa/	.	.	8ee\J	.	.	.	.	.
*	*	*	*	*	*	*	*2\right	*	*	*	*	*
8AA/L	.	.	.	.	.	.	2ee\	.	.	.	.	.
8AA/	.	.	.	4aa/	.	.	.	.	.	.	.	.
8AA/	.	.	.	.	.	.	.	.	.	.	.	.
8AA/J	.	.	.	[8aa/	.	.	.	.	.	.	.	.
!	!	!	!	!LO:LB:g=original	!LO:LB:g=original	!	!	!	!	!	!	!
=11	=11	=11	=11	=11	=11	=11	=11	=11	=11	=11	=11	=11
!	!LO:DY:t=for	!	!LO:DY:t=for	!LO:TX:a:t=P:problem:brak zakończenia ligatury	!	!	!	!	!	!	!	!
8D\L	f	8f#\	f	8aa/]	1a	.	4.ddd\	f	.	.	.	.
8D\	.	4f#\	.	4aa/	.	.	.	.	.	.	.	.
8D\	.	.	.	.	.	.	.	.	.	.	.	.
8D\J	.	8f#\	.	4aa/	.	.	16ccc#\LL	.	.	.	.	.
.	.	.	.	.	.	.	16bb\JJ	.	.	.	.	.
8F#\L	.	2d\	.	.	.	.	4aa\	.	.	.	.	.
8F#\	.	.	.	4aa/	.	.	.	.	.	.	.	.
8F#\	.	.	.	.	.	.	8r	.	.	.	.	.
8F#\J	.	.	.	8aa/	.	.	8ff#\	p	.	.	.	.
=12	=12	=12	=12	=12	=12	=12	=12	=12	=12	=12	=12	=12
.	.	.	.	.	.	.	8qqaa/	.	.	.	.	.
!	!LO:DY:t=pn	!	!LO:DY:t=pn	!	!	!	!	!	!	!	!	!
8E\L	p	1c#	p	8aa/	1a	.	4gg\	.	.	.	.	.
8E\	.	.	.	4aa/	.	.	.	.	.	.	.	.
8E\	.	.	.	.	.	.	8ff#\L	.	.	.	.	.
8E\J	.	.	.	4aa/	.	.	8ee\J	.	.	.	.	.
8AA/L	.	.	.	.	.	.	2ee\	.	.	.	.	.
8AA/	.	.	.	4aa/	.	.	.	.	.	.	.	.
8AA/	.	.	.	.	.	.	.	.	.	.	.	.
8AA/J	.	.	.	8aa/	.	.	.	.	.	.	.	.
*Xtremolo	*	*	*	*	*	*	*	*	*	*	*	*
=13	=13	=13	=13	=13	=13	=13	=13	=13	=13	=13	=13	=13
!	!	!	!LO:DY:t=for	!	!	!	!	!	!	!	!	!
8D\L	.	8d\L	f	16aa/LL	1a	.	4ff# 4a/	f	[>1c	[1cc	1ff#	1aa
.	.	.	.	16ff#/	.	.	.	.	.	.	.	.
8D\	.	8d\	.	16ff#/	.	.	.	.	.	.	.	.
.	.	.	.	16ee/JJ	.	.	.	.	.	.	.	.
*	*	*	*	*tremolo	*	*	*	*	*	*	*	*
8F#\	.	8f#\	.	16ff#/LL	.	.	8r	.	.	.	.	.
.	.	.	.	16ff#/	.	.	.	.	.	.	.	.
8F#\J	.	8f#\J	.	16ff#/	.	.	8aa 8a/	.	.	.	.	.
.	.	.	.	16ff#/JJ	.	.	.	.	.	.	.	.
8A\L	.	8a\L	.	16ff#/LL	.	.	2aa 2a/	.	.	.	.	.
.	.	.	.	16ff#/	.	.	.	.	.	.	.	.
8A\	.	8a\	.	16ff#/	.	.	.	.	.	.	.	.
.	.	.	.	16ff#/	.	.	.	.	.	.	.	.
8d\	.	8dd\	.	16ff#/	.	.	.	.	.	.	.	.
.	.	.	.	16ff#/	.	.	.	.	.	.	.	.
8d\J	.	8dd\J	.	16ff#/	.	.	.	.	.	.	.	.
.	.	.	.	16ff#/JJ	.	.	.	.	.	.	.	.
*	*	*	*	*v	*v	*	*	*	*	*	*	*
=14	=14	=14	=14	=14	=14	=14	=14	=14	=14	=14	=14
8D\L	.	8d\L	.	16ggLL	.	4bb\	.	1c_>	1cc_	1gg	1bb
.	.	.	.	16gg	.	.	.	.	.	.	.
8D\	.	8d\	.	16gg	.	.	.	.	.	.	.
.	.	.	.	16gg	.	.	.	.	.	.	.
8G\	.	8g\	.	16gg	.	16bb\LL	.	.	.	.	.
.	.	.	.	16gg	.	16aa\	.	.	.	.	.
8G\J	.	8g\J	.	16gg	.	16bb\	.	.	.	.	.
.	.	.	.	16gg	.	16ccc#\JJ	.	.	.	.	.
!LO:LB:g=original	!	!	!	!	!	!LO:TX:a:t=d	!	!	!	!	!
8B\L	.	8b\L	.	16gg	.	4ddd\	.	.	.	.	.
.	.	.	.	16gg	.	.	.	.	.	.	.
8B\	.	8b\	.	16gg	.	.	.	.	.	.	.
.	.	.	.	16gg	.	.	.	.	.	.	.
8d\	.	8dd\	.	16gg	.	4bb\	.	.	.	.	.
.	.	.	.	16gg	.	.	.	.	.	.	.
8d\J	.	8dd\J	.	16gg	.	.	.	.	.	.	.
.	.	.	.	16ggJJ	.	.	.	.	.	.	.
=15	=15	=15	=15	=15	=15	=15	=15	=15	=15	=15	=15
!	!	!	!	!	!	!LO:N:vis=8	!	!	!	!	!
8D\L	.	8d\L	.	16ff# 16aLL	.	4aa 4a/	.	1c_>	1cc_	1ff#	1aa
.	.	.	.	16ff# 16a	.	.	.	.	.	.	.
8D\	.	8d\	.	16ff# 16a	.	.	.	.	.	.	.
.	.	.	.	16ff# 16a	.	.	.	.	.	.	.
8F#\	.	8f#\	.	16ff# 16a	.	8r	.	.	.	.	.
.	.	.	.	16ff# 16a	.	.	.	.	.	.	.
8F#\J	.	8f#\J	.	16ff# 16a	.	8aa 8a/	.	.	.	.	.
.	.	.	.	16ff# 16a	.	.	.	.	.	.	.
!	!	!LO:LB:g=original	!	!	!	!	!	!	!	!	!
*	*	*	*	*	*	*tremolo	*	*	*	*	*
8A\L	.	8a\L	.	16ff# 16a	.	8aa 8a/L	.	.	.	.	.
.	.	.	.	16ff# 16a	.	.	.	.	.	.	.
8A\	.	8a\	.	16ff# 16a	.	8aa 8a/	.	.	.	.	.
.	.	.	.	16ff# 16a	.	.	.	.	.	.	.
8d\	.	8dd\	.	16ff# 16a	.	8aa 8a/	.	.	.	.	.
.	.	.	.	16ff# 16a	.	.	.	.	.	.	.
8d\J	.	8dd\J	.	16ff# 16a	.	8aa 8a/J	.	.	.	.	.
.	.	.	.	16ff# 16aJJ	.	.	.	.	.	.	.
=16	=16	=16	=16	=16	=16	=16	=16	=16	=16	=16	=16
8D\L	.	8d\L	.	16ggLL	.	4bb\	.	1c_>	1cc_	1gg	1bb
.	.	.	.	16gg	.	.	.	.	.	.	.
8D\	.	8d\	.	16gg	.	.	.	.	.	.	.
.	.	.	.	16gg	.	.	.	.	.	.	.
8G\	.	8g\	.	16gg	.	16bb\LL	.	.	.	.	.
.	.	.	.	16gg	.	16aa\	.	.	.	.	.
8G\J	.	8g\J	.	16gg	.	16bb\	.	.	.	.	.
.	.	.	.	16gg	.	16ccc#\JJ	.	.	.	.	.
8B\L	.	8b\L	.	16gg	.	4ddd\	.	.	.	.	.
.	.	.	.	16gg	.	.	.	.	.	.	.
8B\	.	8b\	.	16gg	.	.	.	.	.	.	.
.	.	.	.	16gg	.	.	.	.	.	.	.
8d\	.	8dd\	.	16gg	.	4bb\	.	.	.	.	.
.	.	.	.	16gg	.	.	.	.	.	.	.
8d\J	.	8dd\J	.	16gg	.	.	.	.	.	.	.
.	.	.	.	16ggJJ	.	.	.	.	.	.	.
=17	=17	=17	=17	=17	=17	=17	=17	=17	=17	=17	=17
!	!	!	!	!	!	!	!	!LO:TX:a:t=P:problem:niepotrzebny początek ligatury	!	!	!
8D\L	.	8d\L	.	16ff# 16aLL	.	4aa 4a/	.	1c]	1cc]	4ff#\	4aa\
.	.	.	.	16ff# 16a	.	.	.	.	.	.	.
8D\	.	8d\	.	16ff# 16a	.	.	.	.	.	.	.
.	.	.	.	16ff# 16a	.	.	.	.	.	.	.
8F#\	.	8f#\	.	16ff# 16a	.	8r	.	.	.	4r	4r
.	.	.	.	16ff# 16a	.	.	.	.	.	.	.
8F#\J	.	8f#\J	.	16ff# 16a	.	8aa 8a/	.	.	.	.	.
.	.	.	.	16ff# 16a	.	.	.	.	.	.	.
8A\L	.	8a\L	.	16ff# 16a	.	8aa 8a/L	.	.	.	2r	2r
.	.	.	.	16ff# 16a	.	.	.	.	.	.	.
8A\	.	8a\	.	16ff# 16a	.	8aa 8a/	.	.	.	.	.
.	.	.	.	16ff# 16a	.	.	.	.	.	.	.
8d\	.	8dd\	.	16ff# 16a	.	8aa 8a/	.	.	.	.	.
.	.	.	.	16ff# 16a	.	.	.	.	.	.	.
8d\J	.	8dd\J	.	16ff# 16a	.	8aa 8a/J	.	.	.	.	.
.	.	.	.	16ff# 16aJJ	.	.	.	.	.	.	.
*	*	*	*	*Xtremolo	*	*Xtremolo	*	*	*	*	*
!	!	!	!	!	!	!LO:LB:g=original	!	!	!	!	!
=18	=18	=18	=18	=18	=18	=18	=18	=18	=18	=18	=18
!	!	!	!	!	!	!	!	!LO:TX:a:t=2	!	!LO:TX:a:t=2	!LO:TX:a:t=2
4E\	.	4e\	.	8b\L	.	(8aa\L	.	0r	0r	0r	0r
.	.	.	.	8ee\	.	8gg#X\J)	.	.	.	.	.
4r	.	4r	.	8ee\	.	8gg#\L|	.	.	.	.	.
.	.	.	.	8ee\J	.	8gg#\J|	.	.	.	.	.
2r	.	2r	.	(8ee\L	.	(8gg#\L	.	.	.	.	.
.	.	.	.	8dd\J)	.	8ff#\J)	.	.	.	.	.
.	.	.	.	8dd\L|	.	8ff#\L|	.	.	.	.	.
.	.	.	.	8dd\J|	.	8ff#\J|	.	.	.	.	.
=19	=19	=19	=19	=19	=19	=19	=19	=19	=19	=19	=19
2r	.	2r	.	(8dd\L	.	(8ff#\L	.	.	.	.	.
.	.	.	.	8cc#\J)	.	8ee\J)	.	.	.	.	.
.	.	.	.	8cc#\L|	.	8ee\L|	.	.	.	.	.
.	.	.	.	8cc#\J|	.	8ee\J|	.	.	.	.	.
2G#X\	.	2G#X/	.	(8cc#\L	.	(8ee\L	.	.	.	.	.
.	.	.	.	8b\J)	.	8dd\J)	.	.	.	.	.
.	.	.	.	8b\L|	.	8dd\L|	.	.	.	.	.
.	.	.	.	8b\J|	.	8dd\J|	.	.	.	.	.
=20	=20	=20	=20	=20	=20	=20	=20	=20	=20	=20	=20
!	!	!	!	!	!	!	!	!	!LO:TX:t=P:problem:all\right:global	!	!
8A\L	.	8A/L	.	16a\LL	.	4cc#\	.	4g/	4dd\	[1ee	4dd\
.	.	.	.	16ee\	.	.	.	.	.	.	.
8A\	.	8A/	.	16ee\	.	.	.	.	.	.	.
.	.	.	.	16ee\JJ	.	.	.	.	.	.	.
*	*	*	*	*tremolo	*	*	*	*	*	*	*
8c#\	.	8c#/	.	16ee\LL	.	8r	.	4r	4r	.	8r
.	.	.	.	16ee\	.	.	.	.	.	.	.
8c#\J	.	8c#/J	.	16ee\	.	8aa 8a/	.	.	.	.	8aa\|
.	.	.	.	16ee\JJ	.	.	.	.	.	.	.
*	*	*	*	*2\right	*	*tremolo	*	*	*	*	*
8e\L	.	8e/L	.	16ee\LL	.	8aa 8a/L	.	2r	2r	.	8aa'\L
.	.	.	.	16ee\	.	.	.	.	.	.	.
8e\	.	8e/	.	16ee\	.	8aa 8a/	.	.	.	.	8aa'\
.	.	.	.	16ee\	.	.	.	.	.	.	.
8c#\	.	8c#/	.	16ee\	.	8aa 8a/	.	.	.	.	8aa'\
.	.	.	.	16ee\	.	.	.	.	.	.	.
8c#\J	.	8c#/J	.	16ee\	.	8aa 8a/J	.	.	.	.	8aa'\J
.	.	.	.	16ee\JJ	.	.	.	.	.	.	.
!LO:LB:g=original	!	!	!	!	!	!	!	!	!	!	!
=21	=21	=21	=21	=21	=21	=21	=21	=21	=21	=21	=21
!	!	!	!	!	!	!	!	!LO:TX:a:t=1	!	!	!
8B\L	.	8d/L	.	16eeLL	.	16gg#X\LL	.	1r	1r	1ee_	16gg#X\LL
.	.	.	.	16ee	.	16aa\	.	.	.	.	(16aa\
8B\	.	8d/	.	16ee	.	16bb\	.	.	.	.	16bb\
.	.	.	.	16ee	.	16aa\JJ	.	.	.	.	16aa\JJ)
8d\	.	8B/	.	16ee	.	4.gg#\	.	.	.	.	4.gg#\
.	.	.	.	16ee	.	.	.	.	.	.	.
8d\J	.	8B/J	.	16ee	.	.	.	.	.	.	.
.	.	.	.	16ee	.	.	.	.	.	.	.
8B\L	.	8d/L	.	16ee	.	.	.	.	.	.	.
.	.	.	.	16ee	.	.	.	.	.	.	.
8B\	.	8d/	.	16ee	.	8ff#\L	.	.	.	.	8ff#\L
.	.	.	.	16ee	.	.	.	.	.	.	.
8G#X\	.	8B/	.	16ee	.	8ee\	.	.	.	.	8ee\
.	.	.	.	16ee	.	.	.	.	.	.	.
8G#\J	.	8B/J	.	16ee	.	8dd\J	.	.	.	.	8dd\J
.	.	.	.	16eeJJ	.	.	.	.	.	.	.
=22	=22	=22	=22	=22	=22	=22	=22	=22	=22	=22	=22
8A\L	.	8A/L	.	16eeLL	.	4cc#\	.	4g/	4dd\	1ee_	4cc#\
.	.	.	.	16ee	.	.	.	.	.	.	.
8A\	.	8A/	.	16ee	.	.	.	.	.	.	.
.	.	.	.	16ee	.	.	.	.	.	.	.
8c#\	.	8c#/	.	16ee	.	8r	.	4r	4r	.	8r
.	.	.	.	16ee	.	.	.	.	.	.	.
8c#\J	.	8c#/J	.	16ee	.	8aa 8a/	.	.	.	.	8aa\
.	.	.	.	16ee	.	.	.	.	.	.	.
8e\L	.	8e/L	.	16ee	.	8aa 8a/L	.	2r	2r	.	8aa\L
.	.	.	.	16ee	.	.	.	.	.	.	.
8e\	.	8e/	.	16ee	.	8aa 8a/	.	.	.	.	8aa\
.	.	.	.	16ee	.	.	.	.	.	.	.
8c#\	.	8c#/	.	16ee	.	8aa 8a/	.	.	.	.	8aa\
.	.	.	.	16ee	.	.	.	.	.	.	.
8c#\J	.	8c#/J	.	16ee	.	8aa 8a/J	.	.	.	.	8aa\J
.	.	.	.	16eeJJ	.	.	.	.	.	.	.
*	*	*	*	*	*	*Xtremolo	*	*	*	*	*
=23	=23	=23	=23	=23	=23	=23	=23	=23	=23	=23	=23
!	!	!	!	!	!	!	!	!LO:TX:t=P:problem:brak dwóch taktów	!	!	!
8B\L	.	8d/L	.	16eeLL	.	16gg#X\LL	.	1ryy	1r	1ee_	16gg#X\LL
.	.	.	.	16ee	.	16aa\	.	.	.	.	(16aa\
8B\	.	8d/	.	16ee	.	16bb\	.	.	.	.	16bb\
.	.	.	.	16ee	.	16aa\JJ	.	.	.	.	16aa\JJ)
!	!	!	!	!	!	!	!	!	!	!	!LO:LB:g=original
8d\	.	8B/	.	16ee	.	4.gg#\	.	.	.	.	4.gg#\
.	.	.	.	16ee	.	.	.	.	.	.	.
8d\J	.	8B/J	.	16ee	.	.	.	.	.	.	.
.	.	.	.	16ee	.	.	.	.	.	.	.
!	!	!LO:LB:g=original	!	!	!	!	!	!	!	!	!
8B\L	.	8d/L	.	16ee	.	.	.	.	.	.	.
.	.	.	.	16ee	.	.	.	.	.	.	.
8B\	.	8d/	.	16ee	.	8ff#\L	.	.	.	.	8ff#\L
.	.	.	.	16ee	.	.	.	.	.	.	.
8G#X\	.	8B/	.	16ee	.	8ee\	.	.	.	.	8ee\
.	.	.	.	16ee	.	.	.	.	.	.	.
8G#\J	.	8B/J	.	16ee	.	8dd\J	.	.	.	.	8dd\J
.	.	.	.	16eeJJ	.	.	.	.	.	.	.
!	!	!	!	!LO:LB:g=original	!	!	!	!	!	!	!
=24	=24	=24	=24	=24	=24	=24	=24	=24	=24	=24	=24
*tremolo	*	*	*	*	*	*	*	*	*	*	*
!	!	!LO:TX:t=P:problem:mixed beam	!	!	!	!	!	!	!	!	!
8A\L	.	8A/L	.	4ee\	.	4cc#\	.	1ryy	4dd\	4ee\]	4cc#\
8A\	.	8a\	.	.	.	.	.	.	.	.	.
8A\	.	8a\	.	16aa\LL	.	16aa\LL	.	.	4r	4r	4r
.	.	.	.	16gg#X\	.	16gg#X\	.	.	.	.	.
8A\J	.	8a\J	.	16aa\	.	16aa\	.	.	.	.	.
.	.	.	.	16bb\JJ	.	16bb\JJ	.	.	.	.	.
!	!	!	!	!	!	!LO:LB:g=original	!	!	!	!	!
*	*	*tremolo	*	*	*	*	*	*	*	*	*
8C#/L	.	8c#\L	.	4aa\	.	4aa\	.	.	2r	2r	2r
8C#/	.	8c#\	.	.	.	.	.	.	.	.	.
8C#/	.	8c#\	.	16aa\LL	.	(16aa\LL	.	.	.	.	.
.	.	.	.	16ggn\	.	16ggn\	.	.	.	.	.
8C#/J	.	8c#\J	.	16ff#\	.	16ff#\	.	.	.	.	.
.	.	.	.	16gg\JJ	.	16gg\JJ)	.	.	.	.	.
=25	=25	=25	=25	=25	=25	=25	=25	=25	=25	=25	=25
!	!	!	!	!	!	!	!	!LO:TX:a:t=2	!	!LO:TX:a:t=2	!LO:TX:a:t=2.
8D\L	.	8d\L	.	4ff#\	.	4ff#\	.	0r	0r	0r	0r
8D\	.	8d\	.	.	.	.	.	.	.	.	.
.	.	.	.	8qqgg/	.	8qqgg/	.	.	.	.	.
8D\	.	8d\	.	16ff#\LL	.	16ff#\LL	.	.	.	.	.
.	.	.	.	16ee#X\	.	(16ee#X\	.	.	.	.	.
8D\J	.	8d\J	.	16ff#\	.	16ff#\	.	.	.	.	.
*Xtremolo	*	*Xtremolo	*	*	*	*	*	*	*	*	*
.	.	.	.	16gg#X\JJ	.	16gg#X\JJ	.	.	.	.	.
8D\L	.	8d\L	.	(4ff#\	.	4ff#\)	.	.	.	.	.
8D\	.	8d\	.	.	.	.	.	.	.	.	.
8E\	.	8e\	.	16ff#\LL	.	(16ff#\LL	.	.	.	.	.
.	.	.	.	16een\	.	16een\	.	.	.	.	.
8E\J	.	8e\J	.	16dd\)	.	16dd\	.	.	.	.	.
.	.	.	.	16cc#\JJ	.	16cc#\JJ)	.	.	.	.	.
=26	=26	=26	=26	=26	=26	=26	=26	=26	=26	=26	=26
*tremolo	*	*	*	*	*	*	*	*	*	*	*
8F#\L	.	8f#\	.	4dd\	.	4dd\	.	.	.	.	.
8F#\	.	4A/	.	.	.	.	.	.	.	.	.
.	.	.	.	8qqee/	.	8qqee/	.	.	.	.	.
8F#\	.	.	.	(16dd\LL	.	(16dd\LL	.	.	.	.	.
.	.	.	.	16cc#\	.	16cc#\	.	.	.	.	.
8F#\J	.	4A/	.	16dd\	.	16dd\	.	.	.	.	.
*Xtremolo	*	*	*	*	*	*	*	*	*	*	*
.	.	.	.	16ee\JJ)	.	16ee\JJ)	.	.	.	.	.
8F#\L	.	.	.	(4dd\	.	4dd\	.	.	.	.	.
8F#\	.	8A/	.	.	.	.	.	.	.	.	.
8D#X\	.	8f#\L	.	16dd\LL	.	(16dd\LL	.	.	.	.	.
.	.	.	.	16cc#\	.	16cc#\	.	.	.	.	.
8D#\J	.	8f#\J	.	16b\)	.	16b\	.	.	.	.	.
.	.	.	.	16a\JJ	.	16a\JJ)	.	.	.	.	.
!LO:LB:g=original	!	!	!	!	!	!	!	!	!	!	!
=27	=27	=27	=27	=27	=27	=27	=27	=27	=27	=27	=27
*	*	*^	*	*	*	*	*	*	*	*	*
*tremolo	*	*	*	*	*	*	*	*	*	*	*	*
.	.	.	.	.	.	.	8qff#/	.	.	.	.	.
8E\L	.	4ryy	4e\	.	4ee\	.	4ee\	.	4dd\	4dd\	4ee\	4ee\
8E\	.	.	.	.	.	.	.	.	.	.	.	.
.	.	.	.	.	8qqaa/	.	.	.	.	.	8qqaa/	8qqaa/
8E\	.	4b/	4g#X\	.	8gg#X\L	.	8gg#X\L	.	8dd\L	8dd\L	8gg#X\L	8gg#X\L
8E\J	.	.	.	.	16ff#\L	.	16ff#\L	.	8dd\J	8dd\J	16ff#\L	16ff#\L
.	.	.	.	.	16ee\JJ	.	16ee\JJ	.	.	.	16ee\JJ	16ee\JJ
!	!	!	!	!	!	!	!	!	!	!	!LO:LB:g=original	!
!	!	!	!	!	!LO:TX:t=P:problem:mixed beam	!	!LO:TX:t=P:problem:mixed beam	!	!	!	!LO:TX:t=P:problem:mixed beam	!LO:TX:t=P:problem:mixed beam
8E\L	.	2cc#/	2a\	.	8aa\L	.	8aa\L	.	4g/	4dd\	8aa\L	8aa\L
8E\	.	.	.	.	8a/J	.	8a/J	.	.	.	8a/J	8a/J
.	.	.	.	.	8qqdd/	.	8qdd/	.	.	.	8qqdd/	8qqdd/
8E\	.	.	.	.	8cc#\L	.	8cc#\L	.	8g/L	8dd\L	8cc#/L	8cc#\L
8E\J	.	.	.	.	16b\L	.	16b\L	.	8g/J	8dd\J	16b/L	16b\L
.	.	.	.	.	16a\JJ	.	16a\JJ	.	.	.	16a/JJ	16a\JJ
=28	=28	=28	=28	=28	=28	=28	=28	=28	=28	=28	=28	=28
!	!	!	!	!	!	!	!LO:SIC:s=4g#:v	!	!	!LO:TX:a:t=P:problem:takt zapisany repetycją	!	!
8E\L	.	4b/	4g#X\	.	4ee 4b 4g#X/	.	4ee 4b 4g/	.	4dd\	4dd\yy	4ee\	4ee\
8E\	.	.	.	.	.	.	.	.	.	.	.	.
.	.	.	.	.	.	.	8qaa/	.	.	.	8qqaa/	8qqaa/
8E\	.	4b/	4g#\	.	8gg#X\L	.	8gg#X\L	.	8dd\L	8dd\Lyy	8gg#X\L	8gg#X\L
8E\J	.	.	.	.	16ff#\L	.	16ff#\L	.	8dd\J	8dd\Jyy	16ff#\L	16ff#\L
.	.	.	.	.	16ee\JJ	.	16ee\JJ	.	.	.	16ee\JJ	16ee\JJ
!	!	!	!	!	!LO:TX:t=P:problem:mixed beam	!	!LO:TX:t=P:problem:mixed beam	!	!	!	!LO:TX:t=P:problem:mixed beam	!LO:TX:t=P:problem:mixed beam
8E\L	.	2cc#/	2a\	.	8aa\L	.	8aa\L	.	4g/	4dd\yy	8aa\L	8aa\L
8E\	.	.	.	.	8a/J	.	8a/J	.	.	.	8a/J	8a/J
.	.	.	.	.	8qqdd/	.	8qdd/	.	.	.	8qqdd/	8qqdd/
8E\	.	.	.	.	8cc#\L	.	8cc#\L	.	8g/L	8dd\Lyy	8cc#/L	8cc#\L
8E\J	.	.	.	.	16b\L	.	16b\L	.	8g/J	8dd\Jyy	16b/L	16b\L
.	.	.	.	.	16a\JJ	.	16a\JJ	.	.	.	16a/JJ	16a\JJ
*Xtremolo	*	*	*	*	*	*	*	*	*	*	*	*
*	*	*v	*v	*	*	*	*	*	*	*	*	*
!	!	!	!	!	!	!	!	!LO:LB:g=original	!	!	!
=29	=29	=29	=29	=29	=29	=29	=29	=29	=29	=29	=29
!	!	!	!LO:DY:t=pn	!	!	!	!	!	!	!	!
4E\	.	8b\L	p	4ee 4b 4g#X/	.	4ee 4b 4g#X/	.	4dd\	4dd\	4ee\	4ee\
.	.	8e\	.	.	.	.	.	.	.	.	.
4r	.	8e\	.	4r	.	4r	.	4r	4r	4r	4r
.	.	8e\J	.	.	.	.	.	.	.	.	.
*	*	*tremolo	*	*	*	*	*	*	*	*	*
2r	.	8e\L	.	2r	.	2r	.	2r	2r	2r	2r
.	.	8e\	.	.	.	.	.	.	.	.	.
.	.	8e\	.	.	.	.	.	.	.	.	.
.	.	8e\J	.	.	.	.	.	.	.	.	.
!	!	!	!	!	!	!	!	!	!LO:LB:g=original	!	!
=30	=30	=30	=30	=30	=30	=30	=30	=30	=30	=30	=30
!LO:TX:a:t=11	!	!LO:TX:b:i:t=Segue	!	!	!	!	!	!LO:TX:a:t=11	!	!LO:TX:a:t=17	!LO:TX:a:t=17
00r	.	8eL	.	4.b\	p	4.dd\	p	00r	00r	00r	00r
.	.	8e	.	.	.	.	.	.	.	.	.
.	.	8e	.	.	.	.	.	.	.	.	.
.	.	8e	.	(16cc#\LL	.	(16ee\LL	.	.	.	.	.
.	.	.	.	16b\JJ)	.	16dd\JJ)	.	.	.	.	.
.	.	8e	.	4a/	.	4cc#\	.	.	.	.	.
.	.	8e	.	.	.	.	.	.	.	.	.
.	.	8e	.	4g#X/	.	4b\	.	.	.	.	.
.	.	8eJ	.	.	.	.	.	.	.	.	.
=31	=31	=31	=31	=31	=31	=31	=31	=31	=31	=31	=31
.	.	8eL	.	4.cc#\	.	(4.ee\	.	.	.	.	.
.	.	8e	.	.	.	.	.	.	.	.	.
.	.	8e	.	.	.	.	.	.	.	.	.
.	.	8e	.	8a\	.	8cc#\	.	.	.	.	.
.	.	8e	.	4cc#\	.	4ee\)	.	.	.	.	.
.	.	8e	.	.	.	.	.	.	.	.	.
.	.	8e	.	4r	.	4r	.	.	.	.	.
.	.	8eJ	.	.	.	.	.	.	.	.	.
!	!	!	!	!LO:LB:g=original	!	!LO:LB:g=original	!	!	!	!	!
=32	=32	=32	=32	=32	=32	=32	=32	=32	=32	=32	=32
.	.	8eL	.	4.b\	.	4.dd\	.	.	.	.	.
.	.	8e	.	.	.	.	.	.	.	.	.
.	.	8e	.	.	.	.	.	.	.	.	.
.	.	8e	.	(16cc#\LL	.	(16ee\LL	.	.	.	.	.
.	.	.	.	16b\JJ)	.	16dd\JJ)	.	.	.	.	.
.	.	8e	.	4a/	.	4cc#\	.	.	.	.	.
.	.	8e	.	.	.	.	.	.	.	.	.
.	.	8e	.	4g#X/	.	4b\	.	.	.	.	.
.	.	8eJ	.	.	.	.	.	.	.	.	.
!	!	!LO:LB:g=original	!	!	!	!	!	!	!	!	!
=33	=33	=33	=33	=33	=33	=33	=33	=33	=33	=33	=33
.	.	8eL	.	4.cc#\	.	(4.ee\	.	.	.	.	.
.	.	8e	.	.	.	.	.	.	.	.	.
.	.	8e	.	.	.	.	.	.	.	.	.
.	.	8e	.	8a\	.	8cc#\	.	.	.	.	.
.	.	8e	.	4cc#\	.	4ee\)	.	.	.	.	.
.	.	8e	.	.	.	.	.	.	.	.	.
.	.	8e	.	4r	.	4r	.	.	.	.	.
.	.	8eJ	.	.	.	.	.	.	.	.	.
=34	=34	=34	=34	=34	=34	=34	=34	=34	=34	=34	=34
!	!	!LO:TX:b:i:t=ten	!	!	!	!	!	!	!	!	!
00r	.	[1d	.	(4.d/	.	(4.ff#\	.	00r	00r	00r	00r
.	.	.	.	8e/)	.	8gg#X\	.	.	.	.	.
.	.	.	.	4f#/|	.	4aa\)	.	.	.	.	.
.	.	.	.	4f#/|	.	4aa\	.	.	.	.	.
=35	=35	=35	=35	=35	=35	=35	=35	=35	=35	=35	=35
.	.	1d]	.	1f#	.	8aa\	.	.	.	.	.
!	!	!	!	!	!	!LO:N:vis=8	!	!	!	!	!
.	.	.	.	.	.	4b\	.	.	.	.	.
.	.	.	.	.	.	8cc#\	.	.	.	.	.
.	.	.	.	.	.	8qee/	.	.	.	.	.
.	.	.	.	.	.	4dd\	.	.	.	.	.
.	.	.	.	.	.	8cc#\L	.	.	.	.	.
.	.	.	.	.	.	8b\J	.	.	.	.	.
=36	=36	=36	=36	=36	=36	=36	=36	=36	=36	=36	=36
.	.	4c#\	.	4.a/	.	(4.ee\	.	.	.	.	.
.	.	4d\	.	.	.	.	.	.	.	.	.
.	.	.	.	8d/	.	8ff#\)	.	.	.	.	.
.	.	.	.	8qqc#/	.	8qa/	.	.	.	.	.
.	.	4e\	.	2B/	.	2g#X/	.	.	.	.	.
.	.	4e\	.	.	.	.	.	.	.	.	.
=37	=37	=37	=37	=37	=37	=37	=37	=37	=37	=37	=37
.	.	4A/	.	4A/	.	8r	.	.	.	.	.
.	.	.	.	.	.	(8a\L	.	.	.	.	.
.	.	4r	.	4r	.	8b\	.	.	.	.	.
.	.	.	.	.	.	8cc#\J	.	.	.	.	.
.	.	2r	.	4r	.	8dd\L	.	.	.	.	.
.	.	.	.	.	.	8dd#X\	.	.	.	.	.
.	.	.	.	4c#/	.	8ee\	.	.	.	.	.
.	.	.	.	.	.	8ee#X\J)	.	.	.	.	.
=38	=38	=38	=38	=38	=38	=38	=38	=38	=38	=38	=38
0r	.	[1d	.	(4.d/	.	(4.ff#\	.	0r	0r	00r	00r
.	.	.	.	8e/)	.	8gg#X\)	.	.	.	.	.
.	.	.	.	4f#/|	.	4aa\	.	.	.	.	.
.	.	.	.	4f#/|	.	4aa\	.	.	.	.	.
=39	=39	=39	=39	=39	=39	=39	=39	=39	=39	=39	=39
.	.	1d]	.	1f#	.	8aa\	.	.	.	.	.
.	.	.	.	.	.	4b/	.	.	.	.	.
.	.	.	.	.	.	8cc#\	.	.	.	.	.
.	.	.	.	.	.	8qee/	.	.	.	.	.
.	.	.	.	.	.	4dd\	.	.	.	.	.
.	.	.	.	.	.	8cc#\L	.	.	.	.	.
.	.	.	.	.	.	8b\J	.	.	.	.	.
=40	=40	=40	=40	=40	=40	=40	=40	=40	=40	=40	=40
1r	.	4c#\	.	4.a/	.	(4.ee\	.	1r	1r	.	.
.	.	4d\	.	.	.	.	.	.	.	.	.
.	.	.	.	8d/	.	8ff#\)	.	.	.	.	.
.	.	.	.	8qqc#/	.	8qa/	.	.	.	.	.
.	.	4e\	.	2B/	.	2g#X/	.	.	.	.	.
.	.	4e\	.	.	.	.	.	.	.	.	.
=41	=41	=41	=41	=41	=41	=41	=41	=41	=41	=41	=41
!	!	!	!LO:DY:t=for	!LO:TX:t=P:problem:mixed beam	!	!	!	!	!	!	!
4AA/	.	4e\	f	16c#/LL	.	4a/	.	1g	[1dd	.	.
.	.	.	.	16ee\	.	.	.	.	.	.	.
.	.	.	.	16ee\	.	.	.	.	.	.	.
.	.	.	.	16ee\JJ	.	.	.	.	.	.	.
4r	.	4r	.	16ee\LL	.	4r	.	.	.	.	.
.	.	.	.	16ee\	.	.	.	.	.	.	.
.	.	.	.	16ee\	.	.	.	.	.	.	.
.	.	.	.	16ee\JJ	.	.	.	.	.	.	.
!	!	!	!	!LO:TX:t=P:problem:2\right:global	!	!	!	!	!	!	!
4.A\	.	4.a\	.	16ee\LL	.	4.cc#\	.	.	.	.	.
.	.	.	.	16ee\	.	.	.	.	.	.	.
.	.	.	.	16ee\	.	.	.	.	.	.	.
.	.	.	.	16ee\	.	.	.	.	.	.	.
.	.	.	.	16ee\	.	.	.	.	.	.	.
.	.	.	.	16ee\	.	.	.	.	.	.	.
8A\	.	8a\	.	16ee\	.	8cc#\	.	.	.	.	.
.	.	.	.	16ee\JJ	.	.	.	.	.	.	.
!	!	!	!	!	!	!LO:LB:g=original	!	!	!	!	!
=42	=42	=42	=42	=42	=42	=42	=42	=42	=42	=42	=42
*	*	*	*	*	*	*tremolo	*	*	*	*	*
4G#X\	.	4g#X\	.	16eeLL	.	16dd\LL	.	1dd	1dd_	00r	00r
.	.	.	.	16ee	.	16dd\	.	.	.	.	.
.	.	.	.	16ee	.	16dd\	.	.	.	.	.
.	.	.	.	16ee	.	16dd\JJ	.	.	.	.	.
4r	.	4r	.	16ee	.	16b\LL	.	.	.	.	.
.	.	.	.	16ee	.	16b\	.	.	.	.	.
.	.	.	.	16ee	.	16b\	.	.	.	.	.
.	.	.	.	16ee	.	16b\JJ	.	.	.	.	.
4.d\	.	4.dd\	.	16ee	.	16g#X/LL	.	.	.	.	.
.	.	.	.	16ee	.	16g#X/	.	.	.	.	.
.	.	.	.	16ee	.	16g#X/	.	.	.	.	.
.	.	.	.	16ee	.	16g#X/JJ	.	.	.	.	.
.	.	.	.	16ee	.	16e/LL	.	.	.	.	.
.	.	.	.	16ee	.	16e/	.	.	.	.	.
8d\	.	8dd\	.	16ee	.	16e/	.	.	.	.	.
.	.	.	.	16eeJJ	.	16e/JJ	.	.	.	.	.
*	*	*	*	*	*	*Xtremolo	*	*	*	*	*
=43	=43	=43	=43	=43	=43	=43	=43	=43	=43	=43	=43
4c#\	.	4cc#\	.	16eeLL	.	4a/	.	1g	1dd_	.	.
.	.	.	.	16ee	.	.	.	.	.	.	.
.	.	.	.	16ee	.	.	.	.	.	.	.
.	.	.	.	16ee	.	.	.	.	.	.	.
4A\	.	4a\	.	16ee	.	4r	.	.	.	.	.
.	.	.	.	16ee	.	.	.	.	.	.	.
.	.	.	.	16ee	.	.	.	.	.	.	.
.	.	.	.	16ee	.	.	.	.	.	.	.
4.c#\	.	4.c#/	.	16ee	.	4.aa\	.	.	.	.	.
.	.	.	.	16ee	.	.	.	.	.	.	.
.	.	.	.	16ee	.	.	.	.	.	.	.
.	.	.	.	16ee	.	.	.	.	.	.	.
.	.	.	.	16ee	.	.	.	.	.	.	.
.	.	.	.	16ee	.	.	.	.	.	.	.
8c#\	.	8c#/	.	16ee	.	8aa\	.	.	.	.	.
.	.	.	.	16eeJJ	.	.	.	.	.	.	.
=44	=44	=44	=44	=44	=44	=44	=44	=44	=44	=44	=44
4d\	.	4d/	.	16eeLL	.	4gg#X\	.	1dd	1dd]	.	.
.	.	.	.	16ee	.	.	.	.	.	.	.
.	.	.	.	16ee	.	.	.	.	.	.	.
.	.	.	.	16ee	.	.	.	.	.	.	.
4B\	.	4d/	.	16ee	.	4r	.	.	.	.	.
.	.	.	.	16ee	.	.	.	.	.	.	.
.	.	.	.	16ee	.	.	.	.	.	.	.
.	.	.	.	16ee	.	.	.	.	.	.	.
4G#X\	.	4B/	.	16ee	.	4.ddd\	.	.	.	.	.
.	.	.	.	16ee	.	.	.	.	.	.	.
.	.	.	.	16ee	.	.	.	.	.	.	.
.	.	.	.	16ee	.	.	.	.	.	.	.
4E\	.	4B/	.	16ee	.	.	.	.	.	.	.
.	.	.	.	16ee	.	.	.	.	.	.	.
.	.	.	.	16ee	.	8ddd\	.	.	.	.	.
.	.	.	.	16eeJJ	.	.	.	.	.	.	.
=45	=45	=45	=45	=45	=45	=45	=45	=45	=45	=45	=45
*	*	*	*	*	*	*^	*	*	*	*	*
*	*	*	*	*	*	*	*	*	*	*2\right	*	*
8A\L	.	8a\L	.	16eeLL	.	4ccc#\	2ryy	.	2g/	2dd\	.	.
.	.	.	.	16ee	.	.	.	.	.	.	.	.
8A\	.	8a\	.	16ee	.	.	.	.	.	.	.	.
.	.	.	.	16ee	.	.	.	.	.	.	.	.
8A\	.	8a\	.	16ee	.	4r	.	.	.	.	.	.
.	.	.	.	16ee	.	.	.	.	.	.	.	.
8A\J	.	8a\J	.	16ee	.	.	.	.	.	.	.	.
.	.	.	.	16ee	.	.	.	.	.	.	.	.
*tremolo	*	*	*	*	*	*	*	*	*	*	*	*
!	!	!LO:LB:g=original	!	!	!	!	!	!	!	!	!	!
8C#/L	.	8c#\L	.	16ee	.	4.aa/	2a\	.	2g/	2dd\	.	.
.	.	.	.	16ee	.	.	.	.	.	.	.	.
8C#/	.	8c#\	.	16ee	.	.	.	.	.	.	.	.
.	.	.	.	16ee	.	.	.	.	.	.	.	.
8C#/	.	8c#\	.	16ee	.	.	.	.	.	.	.	.
.	.	.	.	16ee	.	.	.	.	.	.	.	.
8C#/J	.	8c#\J	.	16ee	.	8aa/	.	.	.	.	.	.
.	.	.	.	16eeJJ	.	.	.	.	.	.	.	.
*	*	*	*	*Xtremolo	*	*	*	*	*	*	*	*
*	*	*	*	*	*	*v	*v	*	*	*	*	*
!LO:LB:g=original	!	!	!	!	!	!	!	!	!	!	!
=46	=46	=46	=46	=46	=46	=46	=46	=46	=46	=46	=46
*	*	*	*	*^	*	*	*	*	*	*	*
8D\L	.	8d\L	.	4ff# 4a 4d/	2ryy	.	4ff# 4a 4d/	.	4cc\	4ee\	1r	1r
8D\	.	8d\	.	.	.	.	.	.	.	.	.	.
8D\	.	8d\	.	4ff# 4a 4d/	.	.	4ff# 4a 4d/	.	4cc\	4ee\	.	.
8D\J	.	8d\J	.	.	.	.	.	.	.	.	.	.
8E\L	.	8e\L	.	4ee/	4cc# 4a\	.	4ee 4cc# 4a/	.	4dd\	4dd\	.	.
8E\	.	8e\	.	.	.	.	.	.	.	.	.	.
8E\	.	8e\	.	4ee 4b 4g#X/	4ryy	.	4ee 4b 4g#X/	.	4dd\	4dd\	.	.
8E\J	.	8e\J	.	.	.	.	.	.	.	.	.	.
=47	=47	=47	=47	=47	=47	=47	=47	=47	=47	=47	=47	=47
*	*	*	*	*	*	*	*^	*	*	*	*	*
*	*	*	*	*	*	*	*	*Xtremolo	*	*	*	*	*
4AA/	.	4A/	.	16cc#\LL	2ryy	.	4ryy	16cc#\LL	.	[>1g	[<1gg	[1cc#	[1aa
.	.	.	.	16aa\	.	.	.	16aa\	.	.	.	.	.
.	.	.	.	16cc#\	.	.	.	16cc#\	.	.	.	.	.
.	.	.	.	16aa\JJ	.	.	.	16aa\JJ	.	.	.	.	.
*	*	*	*	*	*	*	*tremolo	*tremolo	*	*	*	*	*
8r	.	8r	.	16cc#\LL	.	.	16aa/LL	16cc#\LL	.	.	.	.	.
.	.	.	.	16aa\	.	.	16aa/	16cc#\	.	.	.	.	.
8A\	.	8a\	.	16cc#\	.	.	16aa/	16cc#\	.	.	.	.	.
.	.	.	.	16aa\JJ	.	.	16aa/JJ	16cc#\JJ	.	.	.	.	.
!	!	!	!	!LO:LB:g=original	!	!	!	!	!	!	!	!	!
*	*	*	*	*tremolo	*tremolo	*	*	*	*	*	*	*	*
8c#\L	.	8cc#\L	.	16aa/LL	16cc#\LL	.	16aa/LL	16cc#\LL	.	.	.	.	.
.	.	.	.	16aa/	16cc#\	.	16aa/	16cc#\	.	.	.	.	.
8e\	.	8ee\	.	16aa/	16cc#\	.	16aa/	16cc#\	.	.	.	.	.
.	.	.	.	16aa/	16cc#\	.	16aa/	16cc#\	.	.	.	.	.
8c#\	.	8cc#\	.	16aa/	16cc#\	.	16aa/	16cc#\	.	.	.	.	.
.	.	.	.	16aa/	16cc#\	.	16aa/	16cc#\	.	.	.	.	.
8A\J	.	8a\J	.	16aa/	16cc#\	.	16aa/	16cc#\	.	.	.	.	.
.	.	.	.	16aa/JJ	16cc#\JJ	.	16aa/JJ	16cc#\JJ	.	.	.	.	.
*	*	*	*	*v	*v	*	*	*	*	*	*	*	*
*	*	*	*	*	*	*v	*v	*	*	*	*	*
=48	=48	=48	=48	=48	=48	=48	=48	=48	=48	=48	=48
4F#\	.	4f#\	.	16aa 16cc#LL	.	16aa 16cc#LL	.	1g]	1gg]	(1cc#]	1aa_
.	.	.	.	16aa 16cc#	.	16aa 16cc#	.	.	.	.	.
.	.	.	.	16aa 16cc#	.	16aa 16cc#	.	.	.	.	.
.	.	.	.	16aa 16cc#	.	16aa 16cc#	.	.	.	.	.
8r	.	8r	.	16aa 16cc#	.	16aa 16cc#	.	.	.	.	.
.	.	.	.	16aa 16cc#	.	16aa 16cc#	.	.	.	.	.
8F#\	.	8f#\	.	16aa 16cc#	.	16aa 16cc#	.	.	.	.	.
.	.	.	.	16aa 16cc#	.	16aa 16cc#	.	.	.	.	.
8A\L	.	8a\L	.	16aa 16cc#	.	16aa 16cc#	.	.	.	.	.
.	.	.	.	16aa 16cc#	.	16aa 16cc#	.	.	.	.	.
8c#\	.	8cc#\	.	16aa 16cc#	.	16aa 16cc#	.	.	.	.	.
.	.	.	.	16aa 16cc#	.	16aa 16cc#	.	.	.	.	.
8A\	.	8a\	.	16aa 16cc#	.	16aa 16cc#	.	.	.	.	.
.	.	.	.	16aa 16cc#	.	16aa 16cc#	.	.	.	.	.
8F#\J	.	8f#\J	.	16aa 16cc#	.	16aa 16cc#	.	.	.	.	.
.	.	.	.	16aa 16cc#JJ	.	16aa 16cc#JJ	.	.	.	.	.
=49	=49	=49	=49	=49	=49	=49	=49	=49	=49	=49	=49
4D\	.	4d\	.	16aa 16bLL	.	16aa 16bLL	.	4cc\	4ee\	[1b)	(1aa]
.	.	.	.	16aa 16b	.	16aa 16b	.	.	.	.	.
.	.	.	.	16aa 16b	.	16aa 16b	.	.	.	.	.
.	.	.	.	16aa 16b	.	16aa 16b	.	.	.	.	.
8r	.	8r	.	16aa 16b	.	16aa 16b	.	4r	4r	.	.
.	.	.	.	16aa 16b	.	16aa 16b	.	.	.	.	.
8D\	.	8d\	.	16aa 16b	.	16aa 16b	.	.	.	.	.
.	.	.	.	16aa 16b	.	16aa 16b	.	.	.	.	.
8F#\L	.	8f#\L	.	16aa 16b	.	16aa 16b	.	2r	2r	.	.
.	.	.	.	16aa 16b	.	16aa 16b	.	.	.	.	.
8A\	.	8a\	.	16aa 16b	.	16aa 16b	.	.	.	.	.
.	.	.	.	16aa 16b	.	16aa 16b	.	.	.	.	.
8F#\	.	8f#\	.	16aa 16b	.	16aa 16b	.	.	.	.	.
.	.	.	.	16aa 16b	.	16aa 16b	.	.	.	.	.
8D#X\J	.	8d\J	.	16aa 16b	.	16aa 16b	.	.	.	.	.
.	.	.	.	16aa 16bJJ	.	16aa 16bJJ	.	.	.	.	.
=50	=50	=50	=50	=50	=50	=50	=50	=50	=50	=50	=50
!	!	!	!	!	!	!	!	!LO:TX:a:t=2	!	!	!
8E\L	.	8e\L	.	16b\LL	.	16gg#X\LL	.	0r	0r	4b\]	4gg#X\)
.	.	.	.	16b\	.	16gg#X\	.	.	.	.	.
8E\	.	8e\	.	16b\	.	16gg#X\	.	.	.	.	.
.	.	.	.	16b\JJ	.	16gg#X\JJ	.	.	.	.	.
8E\	.	8e\	.	16ff#\LL	.	16aa\LL	.	.	.	4ff#\	4aa\
.	.	.	.	16ff#\	.	16aa\	.	.	.	.	.
8E\J	.	8e\J	.	16ff#\	.	16aa\	.	.	.	.	.
.	.	.	.	16ff#\JJ	.	16aa\JJ	.	.	.	.	.
8E\L	.	8e\L	.	16gg#X\LL	.	16bb\LL	.	.	.	4gg#X\	4bb\
.	.	.	.	16gg#X\	.	16bb\	.	.	.	.	.
8E\	.	8e\	.	16gg#X\	.	16bb\	.	.	.	.	.
.	.	.	.	16gg#X\JJ	.	16bb\JJ	.	.	.	.	.
8E\	.	8e\	.	16aa\LL	.	16ccc#\LL	.	.	.	4aa\	4ccc#\
.	.	.	.	16aa\	.	16ccc#\	.	.	.	.	.
8E\J	.	8e\J	.	16aa\	.	16ccc#\	.	.	.	.	.
.	.	.	.	16aa\JJ	.	16ccc#\JJ	.	.	.	.	.
*Xtremolo	*	*Xtremolo	*	*Xtremolo	*	*Xtremolo	*	*	*	*	*
=51	=51	=51	=51	=51	=51	=51	=51	=51	=51	=51	=51
4E\	.	4e\	.	16bb\LL	.	16ddd\LL	.	.	.	8bb'\L	8ddd\L
.	.	.	.	16bb\	.	16ddd\	.	.	.	.	.
.	.	.	.	16aa\	.	16ccc#\	.	.	.	8aa'\	8ccc#\
.	.	.	.	16aa\JJ	.	16ccc#\JJ	.	.	.	.	.
4r	.	4r	.	16gg#X\LL	.	16bb\LL	.	.	.	8gg#X'\	8bb\
.	.	.	.	16gg#\	.	16bb\	.	.	.	.	.
.	.	.	.	16ff#\	.	16aa\	.	.	.	8ff#'\J	8aa\J
.	.	.	.	16ff#\JJ	.	16aa\JJ	.	.	.	.	.
!	!	!	!	!	!	!LO:TX:a:t=P:problem:# above	!	!	!	!	!LO:LB:g=original
4E\	.	4e\	.	16ee\LL	.	16gg#X\LL	.	.	.	8ee'\L	8gg#X'\L
.	.	.	.	16ee\	.	16gg#\	.	.	.	.	.
.	.	.	.	16dd\	.	16ff#\	.	.	.	8dd'\	8ff#'\
.	.	.	.	16dd\JJ	.	16ff#\JJ	.	.	.	.	.
4r	.	4r	.	16cc#\LL	.	16ee\LL	.	.	.	8cc#'\	8ee'\
.	.	.	.	16cc#\	.	16ee\	.	.	.	.	.
.	.	.	.	16b\	.	16dd\	.	.	.	8b'\J	8dd'\J
.	.	.	.	16b\JJ	.	16dd\JJ	.	.	.	.	.
!	!	!	!	!	!	!LO:LB:g=original	!	!	!	!	!
=52	=52	=52	=52	=52	=52	=52	=52	=52	=52	=52	=52
*	*	*	*	*tremolo	*	*	*	*	*	*	*
!LO:TX:t=P:problem:mixed beam	!	!	!	!	!	!	!	!	!	!	!
8A\L	.	8a\L	.	16aLL	.	4cc#\	.	4r	4r	4a/	4cc#\
.	.	.	.	16a	.	.	.	.	.	.	.
8A\	.	8a\	.	16a	.	.	.	.	.	.	.
.	.	.	.	16a	.	.	.	.	.	.	.
8C#/	.	8c#\	.	16a	.	4ee 4cc# 4a/	.	4g/	4dd\	4a/	4ee\
.	.	.	.	16a	.	.	.	.	.	.	.
8C#/J	.	8c#\J	.	16a	.	.	.	.	.	.	.
.	.	.	.	16a	.	.	.	.	.	.	.
8D\L	.	8d\L	.	16a	.	4ff# 4a 4d/	.	4cc\	4ee\	4a/	4ff#\
.	.	.	.	16a	.	.	.	.	.	.	.
8D\	.	8d\	.	16a	.	.	.	.	.	.	.
.	.	.	.	16a	.	.	.	.	.	.	.
8F#\	.	8f#\	.	16a	.	4aa 4a 4d/	.	4cc\	4ee\	4a/	4aa\
.	.	.	.	16a	.	.	.	.	.	.	.
8F#\J	.	8f#\J	.	16a	.	.	.	.	.	.	.
.	.	.	.	16aJJ	.	.	.	.	.	.	.
*	*	*	*	*Xtremolo	*	*	*	*	*	*	*
!	!	!	!	!	!	!	!	!	!	!LO:LB:g=original	!
=53	=53	=53	=53	=53	=53	=53	=53	=53	=53	=53	=53
*	*	*	*	*	*	*^	*	*	*	*	*
*tremolo	*	*tremolo	*	*	*	*	*	*	*2\right	*	*2\right	*2\right
8E\L	.	8e\L	.	16cc#\LL	.	4ryy	16cc#\LL	.	2dd\	2dd\	2cc#\	2aa\
.	.	.	.	16aa\	.	.	16aa\	.	.	.	.	.
8E\	.	8e\	.	16cc#\	.	.	16cc#\	.	.	.	.	.
.	.	.	.	16aa\JJ	.	.	16aa\JJ	.	.	.	.	.
*	*	*	*	*	*	*tremolo	*tremolo	*	*	*	*	*
8E\	.	8e\	.	16cc#\LL	.	16aa/LL	16cc#\LL	.	.	.	.	.
.	.	.	.	16aa\	.	16aa/	16cc#\	.	.	.	.	.
8E\J	.	8e\J	.	16cc#\	.	16aa/	16cc#\	.	.	.	.	.
.	.	.	.	16aa\JJ	.	16aa/JJ	16cc#\JJ	.	.	.	.	.
8E\L	.	8e\L	.	16b\LL	.	16gg#X/LL	16b\LL	.	2dd\	2dd\	2b\	2gg#X\
.	.	.	.	16gg#X\	.	16gg#X/	16b\	.	.	.	.	.
8E\	.	8e\	.	16b\	.	16gg#X/	16b\	.	.	.	.	.
.	.	.	.	16gg#\JJ	.	16gg#X/	16b\	.	.	.	.	.
8E\	.	8e\	.	16b\LL	.	16gg#X/	16b\	.	.	.	.	.
.	.	.	.	16gg#\	.	16gg#X/	16b\	.	.	.	.	.
8E\J	.	8e\J	.	16b\	.	16gg#X/	16b\	.	.	.	.	.
.	.	.	.	16gg#\JJ	.	16gg#X/JJ	16b\JJ	.	.	.	.	.
*Xtremolo	*	*Xtremolo	*	*	*	*Xtremolo	*Xtremolo	*	*	*	*	*
*	*	*	*	*	*	*v	*v	*	*	*	*	*
!LO:LB:g=original	!	!LO:LB:g=original	!	!	!	!	!	!	!	!	!
=54	=54	=54	=54	=54	=54	=54	=54	=54	=54	=54	=54
!LO:TX:t=P:problem:mixed beam	!	!	!	!	!	!	!	!	!	!	!
8A\L	.	8a\L	.	16aa/LL	.	4aa 4cc# 4e/	.	4g/	4dd\	4cc#\	4aa\
.	.	.	.	16a/	.	.	.	.	.	.	.
8A\	.	8a\	.	16a/	.	.	.	.	.	.	.
.	.	.	.	16a/JJ	.	.	.	.	.	.	.
*	*	*	*	*tremolo	*	*	*	*	*	*	*
8C#/	.	8c#\	.	16a/LL	.	4ee 4cc# 4a/	.	4g/	4dd\	4a/	4ee\
.	.	.	.	16a/	.	.	.	.	.	.	.
8C#/J	.	8c#\J	.	16a/	.	.	.	.	.	.	.
.	.	.	.	16a/JJ	.	.	.	.	.	.	.
8D\L	.	8d\L	.	16a/LL	.	4ff# 4a 4d/	.	4cc\	4ee\	4a/	4ff#\
.	.	.	.	16a/	.	.	.	.	.	.	.
8D\	.	8d\	.	16a/	.	.	.	.	.	.	.
.	.	.	.	16a/	.	.	.	.	.	.	.
8F#\	.	8f#\	.	16a/	.	4aa 4a 4d/	.	4cc\	4ee\	4dd\	4aa\
.	.	.	.	16a/	.	.	.	.	.	.	.
8F#\J	.	8f#\J	.	16a/	.	.	.	.	.	.	.
.	.	.	.	16a/JJ	.	.	.	.	.	.	.
*	*	*	*	*Xtremolo	*	*	*	*	*	*	*
=55	=55	=55	=55	=55	=55	=55	=55	=55	=55	=55	=55
*	*	*	*	*	*	*^	*	*	*	*	*
*tremolo	*	*tremolo	*	*	*	*	*	*	*	*	*	*
8E\L	.	8e\L	.	16cc#\LL	.	4ryy	16cc#\LL	.	2dd\	2dd\	2cc#\	2aa\
.	.	.	.	16aa\	.	.	16aa\	.	.	.	.	.
8E\	.	8e\	.	16cc#\	.	.	16cc#\	.	.	.	.	.
.	.	.	.	16aa\JJ	.	.	16aa\JJ	.	.	.	.	.
*	*	*	*	*	*	*tremolo	*tremolo	*	*	*	*	*
8E\	.	8e\	.	16cc#\LL	.	16aa/LL	16cc#\LL	.	.	.	.	.
.	.	.	.	16aa\	.	16aa/	16cc#\	.	.	.	.	.
8E\J	.	8e\J	.	16cc#\	.	16aa/	16cc#\	.	.	.	.	.
.	.	.	.	16aa\JJ	.	16aa/JJ	16cc#\JJ	.	.	.	.	.
8E\L	.	8e\L	.	16b\LL	.	16gg#X/LL	16b\LL	.	4dd\	4dd\	2b\	2gg#X\
.	.	.	.	16gg#X\	.	16gg#X/	16b\	.	.	.	.	.
8E\	.	8e\	.	16b\	.	16gg#X/	16b\	.	.	.	.	.
.	.	.	.	16gg#\JJ	.	16gg#X/	16b\	.	.	.	.	.
8E\	.	8e\	.	16b\LL	.	16gg#X/	16b\	.	4dd\	4dd\	.	.
.	.	.	.	16gg#\	.	16gg#X/	16b\	.	.	.	.	.
8E\J	.	8e\J	.	16b\	.	16gg#X/	16b\	.	.	.	.	.
.	.	.	.	16gg#\JJ	.	16gg#X/JJ	16b\JJ	.	.	.	.	.
*Xtremolo	*	*Xtremolo	*	*	*	*Xtremolo	*Xtremolo	*	*	*	*	*
*	*	*	*	*	*	*v	*v	*	*	*	*	*
!	!	!	!	!LO:LB:g=original	!	!	!	!LO:LB:g=original	!	!	!
=56	=56	=56	=56	=56	=56	=56	=56	=56	=56	=56	=56
*	*	*	*	*^	*	*	*	*	*	*	*
4C#/	.	4A/	.	4aa/	4a/	.	4aa 4a/	.	4g/	4dd\	4cc#\	4aa\
8AA/L	.	8A/L	.	8ee/L	8cc#\L	.	16aa\LL	.	8g/L	8dd\L	8cc#\L	8aa\L
.	.	.	.	.	.	.	16ee\	.	.	.	.	.
8AA/J	.	8A/J	.	8ee/J	8cc#\J	.	16cc#\	.	8g/J	8dd\J	8cc#\J	8aa\J
.	.	.	.	.	.	.	16a\JJ	.	.	.	.	.
!	!	!	!	!	!	!	!	!	!	!LO:LB:g=original	!	!
4AA/	.	4A/	.	4ee/	4cc#\	.	4aa 4a/	.	4g/	4dd\	4cc#\	4aa\
8AA/L	.	8A/L	.	8ee/L	8cc#\L	.	16aa\LL	.	8g/L	8dd\L	8cc#\L	8aa\L
.	.	.	.	.	.	.	16ee\	.	.	.	.	.
8AA/J	.	8A/J	.	8ee/J	8cc#\J	.	16cc#\	.	8g/J	8dd\J	8cc#\J	8aa\J
.	.	.	.	.	.	.	16a\JJ	.	.	.	.	.
=57	=57	=57	=57	=57	=57	=57	=57	=57	=57	=57	=57	=57
*	*	*	*	*	*	*	*^	*	*	*	*	*
4AA/	.	4A/	.	4ee/	1cc# 1a	.	4aa/	1cc# 1e	.	4g/	4dd\	4cc#\	4aa\
4AA/	.	4A/	.	4ee/	.	.	4aa/	.	.	4g/	4dd\	4cc#\	4aa\
4AA/	.	4A/	.	4ee/	.	.	4aa/	.	.	4g/	4dd\	4cc#\	4aa\
4AA/	.	4A/	.	4ee/	.	.	4aa/	.	.	4g/	4dd\	4cc#\	4aa\
*	*	*	*	*	*	*	*v	*v	*	*	*	*	*
=58	=58	=58	=58	=58	=58	=58	=58	=58	=58	=58	=58	=58
4AA/	.	4A/	.	4ee/	4cc# 4a\	.	4aa 4cc# 4e/	.	4g/	4dd\	4cc#\	4aa\
4r	.	4r	.	4r	4ryy	.	4r	.	4r	4r	4r	4r
4.Cn/	.	4.cn/	.	4.cn/	2ryy	.	4.cn/	.	2r	2r	2r	2r
8C/	.	8c/	.	8c/	.	.	8c/	.	.	.	.	.
*	*	*	*	*v	*v	*	*	*	*	*	*	*
=59	=59	=59	=59	=59	=59	=59	=59	=59	=59	=59	=59
!	!	!	!	!	!	!	!	!LO:TX:a:t=7	!LO:TX:a:t=7	!LO:TX:a:t=15	!LO:TX:a:t=15
4BB/	.	4B/	.	4B/	.	4B/	.	00r	00r	00r	00r
4r	.	4r	.	4r	.	4r	.	.	.	.	.
!	!	!	!	!LO:SIC:=4.c:v	!	!LO:SIC:s=4.c:v	!	!	!	!	!
4.Cn/	.	4.cn/	.	4.c#/	.	4.c#/	.	.	.	.	.
!	!	!	!	!LO:SIC:s=8c:v	!	!LO:SIC:s=8c:v	!	!	!	!	!
8C/	.	8c/	.	8c#/	.	8c#/	.	.	.	.	.
=60	=60	=60	=60	=60	=60	=60	=60	=60	=60	=60	=60
!	!	!	!LO:DY:t=pn	!	!	!	!	!	!	!	!
4BB/	.	8B/	p	8B/	.	4B/	.	.	.	.	.
!	!	!	!	!LO:N:vis=16	!	!	!	!	!	!	!
.	.	8B/L	.	8B/L	.	.	.	.	.	.	.
!	!	!	!	!LO:N:vis=16	!	!	!	!	!	!	!
4r	.	8d#X/	.	8d#X/	.	4r	.	.	.	.	.
!	!	!	!	!LO:N:vis=16	!	!	!	!	!	!	!
.	.	8B/J	.	8B/J	.	.	.	.	.	.	.
!	!	!	!	!LO:N:vis=16	!	!	!	!	!	!	!
2r	.	8d#/L	.	8d#/L	.	4r	.	.	.	.	.
!	!	!	!	!LO:N:vis=16	!	!	!	!	!	!	!
.	.	8B/	.	8B/	.	.	.	.	.	.	.
!	!	!	!	!LO:N:vis=16	!	!	!	!	!	!	!
.	.	8d#/	.	8d#/	.	8ff#\L	p	.	.	.	.
!	!	!	!	!LO:N:vis=16	!	!	!	!	!	!	!
.	.	8B/J	.	8B/J	.	8aa\J	.	.	.	.	.
!	!	!	!	!	!	!LO:LB:g=original	!	!	!	!	!
=61	=61	=61	=61	=61	=61	=61	=61	=61	=61	=61	=61
.	.	.	.	.	.	8qaa/	.	.	.	.	.
1r	.	8e/L	.	8e/L	.	4gg\	.	.	.	.	.
.	.	8B/	.	8B/	.	.	.	.	.	.	.
.	.	8e/	.	8e/	.	8ff#\L	.	.	.	.	.
.	.	8B/J	.	8B/J	.	8ee\J	.	.	.	.	.
.	.	8f#/L	.	8f#/L	.	4.dd#X\	.	.	.	.	.
.	.	8B/	.	8B/	.	.	.	.	.	.	.
.	.	8f#/	.	8f#/	.	.	.	.	.	.	.
.	.	8B/J	.	8B/J	.	16ee\LL	.	.	.	.	.
.	.	.	.	.	.	16ff#\JJ	.	.	.	.	.
!	!	!LO:LB:g=original	!	!	!	!	!	!	!	!	!
=62	=62	=62	=62	=62	=62	=62	=62	=62	=62	=62	=62
2r	.	4g\	.	4g/	.	4ee\	f	.	.	.	.
.	.	4r	.	4r	.	4r	.	.	.	.	.
!	!	!	!LO:DY:t=for	!	!	!	!	!	!	!	!
4.BB-X/	.	4.B-X/	f	4.B-X/	.	4.B-X/	.	.	.	.	.
8BB-/	.	8B-/	.	8B-/	.	8B-/	.	.	.	.	.
!LO:LB:g=original	!	!	!	!	!	!	!	!	!	!	!
=63	=63	=63	=63	=63	=63	=63	=63	=63	=63	=63	=63
4AA/	.	4A/	.	4A/	.	4A/	.	0r	0r	00r	00r
4r	.	4r	.	4r	.	4r	.	.	.	.	.
!LO:SIC:s=4.BB-:v	!	!LO:SIC:s=4.B-:v	!	!	!	!LO:SIC:s=4.B-:v	!	!	!	!	!
4.BB/	.	4.B/	.	4.B-X/	.	4.B/	.	.	.	.	.
!LO:SIC:s=8BB-:v	!	!LO:SIC:s=8B-:v	!	!	!	!LO:SIC:s=8B-:v	!	!	!	!	!
8BB/	.	8B/	.	8B-/	.	8B/	.	.	.	.	.
=64	=64	=64	=64	=64	=64	=64	=64	=64	=64	=64	=64
!	!	!	!LO:DY:t=pn	!	!	!	!	!	!	!	!
4AA/	.	8A/	p	8A/	.	4A/	.	.	.	.	.
.	.	8A/L	.	8A/L	.	.	.	.	.	.	.
4r	.	8c#X/	.	8c#X/	.	4r	.	.	.	.	.
.	.	8A/J	.	8A/J	.	.	.	.	.	.	.
2r	.	8c#/L	.	8c#/L	.	4r	.	.	.	.	.
.	.	8A/	.	8A/	.	.	.	.	.	.	.
.	.	8c#/	.	8c#/	.	8ee\L	p	.	.	.	.
.	.	8A/J	.	8A/J	.	8gg\J	.	.	.	.	.
=65	=65	=65	=65	=65	=65	=65	=65	=65	=65	=65	=65
1r	.	8d/L	.	8d/L	.	4ff#\	.	1r	1r	.	.
.	.	8A/	.	8A/	.	.	.	.	.	.	.
.	.	8d/	.	8d/	.	8ee\L	.	.	.	.	.
.	.	8A/J	.	8A/J	.	8dd\J	.	.	.	.	.
!	!	!	!	!LO:LB:g=original	!	!	!	!	!	!	!
.	.	8e/L	.	8e/L	.	4.cc#\	.	.	.	.	.
.	.	8A/	.	8A/	.	.	.	.	.	.	.
.	.	8e/	.	8e/	.	.	.	.	.	.	.
.	.	8A/J	.	8A/J	.	16dd\LL	.	.	.	.	.
.	.	.	.	.	.	16ee\JJ	.	.	.	.	.
=66	=66	=66	=66	=66	=66	=66	=66	=66	=66	=66	=66
*	*	*	*	*	*	*tremolo	*	*	*	*	*
4D\	.	4d\	.	4f#/	.	16dd\LL	.	4cc\	4ee\	.	.
.	.	.	.	.	.	16dd\	.	.	.	.	.
.	.	.	.	.	.	16dd\	.	.	.	.	.
.	.	.	.	.	.	16dd\JJ	.	.	.	.	.
*	*	*	*	*	*	*Xtremolo	*	*	*	*	*
4r	.	4r	.	4r	.	16aaLL 16a/	.	4r	4r	.	.
.	.	.	.	.	.	16aa 16a/	.	.	.	.	.
.	.	.	.	.	.	16aa 16a/	.	.	.	.	.
.	.	.	.	.	.	16aaJJ 16a/	.	.	.	.	.
*	*	*	*	*	*	*tremolo	*	*	*	*	*
4.D\	.	4r	.	4.d/	.	16aa 16a/LL	.	4.cc\	4.ee\	.	.
.	.	.	.	.	.	16aa 16a/	.	.	.	.	.
.	.	.	.	.	.	16aa 16a/	.	.	.	.	.
.	.	.	.	.	.	16aa 16a/	.	.	.	.	.
.	.	4f#\	.	.	.	16aa 16a/	.	.	.	.	.
.	.	.	.	.	.	16aa 16a/	.	.	.	.	.
8D\	.	.	.	8d/	.	16aa 16a/	.	8cc\	8ee\	.	.
.	.	.	.	.	.	16aa 16a/JJ	.	.	.	.	.
=67	=67	=67	=67	=67	=67	=67	=67	=67	=67	=67	=67
*	*	*tremolo	*	*	*	*	*	*	*	*	*
4C#/	.	16g\LL	.	4c#/	.	16aa 16aLL	.	4g/	4dd\	00r	00r
.	.	16g\	.	.	.	16aa 16a	.	.	.	.	.
.	.	16g\	.	.	.	16aa 16a	.	.	.	.	.
.	.	16g\JJ	.	.	.	16aa 16a	.	.	.	.	.
4r	.	16e\LL	.	4r	.	16aa 16a	.	4r	4r	.	.
.	.	16e\	.	.	.	16aa 16a	.	.	.	.	.
.	.	16e\	.	.	.	16aa 16a	.	.	.	.	.
.	.	16e\JJ	.	.	.	16aa 16a	.	.	.	.	.
4.G\	.	16c#/LL	.	4.g/	.	16aa 16a	.	4.g/	4.dd\	.	.
.	.	16c#/	.	.	.	16aa 16a	.	.	.	.	.
.	.	16c#/	.	.	.	16aa 16a	.	.	.	.	.
.	.	16c#/JJ	.	.	.	16aa 16a	.	.	.	.	.
.	.	16A/LL	.	.	.	16aa 16a	.	.	.	.	.
.	.	16A/	.	.	.	16aa 16a	.	.	.	.	.
8G\	.	16A/	.	8g/	.	16aa 16a	.	8g/	8dd\	.	.
.	.	16A/JJ	.	.	.	16aa 16aJJ	.	.	.	.	.
=68	=68	=68	=68	=68	=68	=68	=68	=68	=68	=68	=68
4F#\	.	4d\	.	4f#/	.	16aa 16aLL	.	4cc\	4cc\	.	.
.	.	.	.	.	.	16aa 16a	.	.	.	.	.
.	.	.	.	.	.	16aa 16a	.	.	.	.	.
.	.	.	.	.	.	16aa 16a	.	.	.	.	.
4r	.	4r	.	4r	.	16aa 16a	.	4r	4r	.	.
.	.	.	.	.	.	16aa 16a	.	.	.	.	.
.	.	.	.	.	.	16aa 16a	.	.	.	.	.
.	.	.	.	.	.	16aa 16a	.	.	.	.	.
4.d\	.	4.f#\	.	4.dd\	.	16aa 16a	.	4.cc\	4.ee\	.	.
.	.	.	.	.	.	16aa 16a	.	.	.	.	.
.	.	.	.	.	.	16aa 16a	.	.	.	.	.
.	.	.	.	.	.	16aa 16a	.	.	.	.	.
.	.	.	.	.	.	16aa 16a	.	.	.	.	.
.	.	.	.	.	.	16aa 16a	.	.	.	.	.
8d\	.	8f#\	.	8dd\	.	16aa 16a	.	8cc\	8ee\	.	.
.	.	.	.	.	.	16aa 16aJJ	.	.	.	.	.
=69	=69	=69	=69	=69	=69	=69	=69	=69	=69	=69	=69
*	*	*^	*	*	*	*	*	*	*	*	*
4c#\	.	2ryy	4e\	.	4cc#\	.	16aa 16aLL	.	4g/	4dd\	.	.
.	.	.	.	.	.	.	16aa 16a	.	.	.	.	.
.	.	.	.	.	.	.	16aa 16a	.	.	.	.	.
.	.	.	.	.	.	.	16aa 16a	.	.	.	.	.
4A\	.	.	4c#\	.	4a\	.	16aa 16a	.	4g/	4dd\	.	.
.	.	.	.	.	.	.	16aa 16a	.	.	.	.	.
.	.	.	.	.	.	.	16aa 16a	.	.	.	.	.
.	.	.	.	.	.	.	16aa 16a	.	.	.	.	.
4d\	.	4f#/	4d\	.	4dd\	.	16aa 16a	.	4cc\	4ee\	.	.
.	.	.	.	.	.	.	16aa 16a	.	.	.	.	.
.	.	.	.	.	.	.	16aa 16a	.	.	.	.	.
.	.	.	.	.	.	.	16aa 16a	.	.	.	.	.
4d\	.	4f#/	4d\	.	4dd\	.	16aa 16a	.	4cc\	4ee\	.	.
.	.	.	.	.	.	.	16aa 16a	.	.	.	.	.
.	.	.	.	.	.	.	16aa 16a	.	.	.	.	.
.	.	.	.	.	.	.	16aa 16aJJ	.	.	.	.	.
!	!	!LO:LB:g=original	!LO:LB:g=original	!	!	!	!	!	!	!	!	!
=70	=70	=70	=70	=70	=70	=70	=70	=70	=70	=70	=70	=70
4A\	.	4e/	4c#\	.	4a/	.	16aa 16aLL	.	4g/	4dd\	.	.
.	.	.	.	.	.	.	16aa 16a	.	.	.	.	.
.	.	.	.	.	.	.	16aa 16a	.	.	.	.	.
.	.	.	.	.	.	.	16aa 16a	.	.	.	.	.
4r	.	4r	4ryy	.	4r	.	16aa 16a	.	4r	4r	.	.
.	.	.	.	.	.	.	16aa 16a	.	.	.	.	.
.	.	.	.	.	.	.	16aa 16a	.	.	.	.	.
.	.	.	.	.	.	.	16aa 16a	.	.	.	.	.
4.D/	.	4r	2ryy	.	4.d/	.	16aa 16a	.	4.cc\	4.ee\	.	.
.	.	.	.	.	.	.	16aa 16a	.	.	.	.	.
.	.	.	.	.	.	.	16aa 16a	.	.	.	.	.
.	.	.	.	.	.	.	16aa 16a	.	.	.	.	.
.	.	4f#\	.	.	.	.	16aa 16a	.	.	.	.	.
.	.	.	.	.	.	.	16aa 16a	.	.	.	.	.
8D/	.	.	.	.	8d/	.	16aa 16a	.	8cc\	8ee\	.	.
.	.	.	.	.	.	.	16aa 16aJJ	.	.	.	.	.
*	*	*v	*v	*	*	*	*	*	*	*	*	*
=71	=71	=71	=71	=71	=71	=71	=71	=71	=71	=71	=71
4C#/	.	16g\LL	.	4c#/	.	16aa 16aLL	.	4g/	4dd\	0r	0r
.	.	16g\	.	.	.	16aa 16a	.	.	.	.	.
.	.	16g\	.	.	.	16aa 16a	.	.	.	.	.
.	.	16g\JJ	.	.	.	16aa 16a	.	.	.	.	.
4r	.	16e\LL	.	4r	.	16aa 16a	.	4r	4r	.	.
.	.	16e\	.	.	.	16aa 16a	.	.	.	.	.
.	.	16e\	.	.	.	16aa 16a	.	.	.	.	.
.	.	16e\JJ	.	.	.	16aa 16a	.	.	.	.	.
4.G\	.	16c#/LL	.	4.g/	.	16aa 16a	.	4.g/	4.dd\	.	.
.	.	16c#/	.	.	.	16aa 16a	.	.	.	.	.
.	.	16c#/	.	.	.	16aa 16a	.	.	.	.	.
.	.	16c#/JJ	.	.	.	16aa 16a	.	.	.	.	.
.	.	16A/LL	.	.	.	16aa 16a	.	.	.	.	.
.	.	16A/	.	.	.	16aa 16a	.	.	.	.	.
8G\	.	16A/	.	8g/	.	16aa 16a	.	8g/	8dd\	.	.
.	.	16A/JJ	.	.	.	16aa 16aJJ	.	.	.	.	.
*	*	*Xtremolo	*	*	*	*	*	*	*	*	*
=72	=72	=72	=72	=72	=72	=72	=72	=72	=72	=72	=72
4F#\	.	4d\	.	4f#/	.	16aa 16aLL	.	4cc\	4cc\	.	.
.	.	.	.	.	.	16aa 16a	.	.	.	.	.
.	.	.	.	.	.	16aa 16a	.	.	.	.	.
.	.	.	.	.	.	16aa 16a	.	.	.	.	.
4r	.	4r	.	4r	.	16aa 16a	.	4r	4r	.	.
.	.	.	.	.	.	16aa 16a	.	.	.	.	.
.	.	.	.	.	.	16aa 16a	.	.	.	.	.
.	.	.	.	.	.	16aa 16a	.	.	.	.	.
!LO:LB:g=original	!	!	!	!	!	!	!	!	!	!	!
4.d\	.	4.d\	.	4.dd\	.	16aa 16a	.	4.cc\	4.ee\	.	.
.	.	.	.	.	.	16aa 16a	.	.	.	.	.
.	.	.	.	.	.	16aa 16a	.	.	.	.	.
.	.	.	.	.	.	16aa 16a	.	.	.	.	.
.	.	.	.	.	.	16aa 16a	.	.	.	.	.
.	.	.	.	.	.	16aa 16a	.	.	.	.	.
8d\	.	8d\	.	8ff#\	.	16aa 16a	.	8cc\	8ee\	.	.
.	.	.	.	.	.	16aa 16aJJ	.	.	.	.	.
*	*	*	*	*	*	*Xtremolo	*	*	*	*	*
=73	=73	=73	=73	=73	=73	=73	=73	=73	=73	=73	=73
*	*	*	*	*^	*	*^	*	*	*	*	*
4G\	.	4g\	.	4gg/	4b\	.	4bb/	4dd\	.	4cc\	4cc\	1r	1r
4G\	.	4g\	.	4bb/	4b 4d/	.	4ddd/ 4dd	4d/	.	4cc\	4cc\	.	.
!	!	!	!	!	!	!	!	!	!	!	!LO:LB:g=original	!	!
4A\	.	4a\	.	4ff#/	4a 4d/	.	4ff#/	4a 4d/	.	4cc\	4ee\	.	.
4AA/	.	4A/	.	4ee/	4cc# 4g\	.	4ee/ 4cc# 4a/	4ryy	.	4g/	4dd\	.	.
*	*	*	*	*	*	*	*v	*v	*	*	*	*	*
!	!	!	!	!	!	!	!LO:LB:g=original	!	!LO:LB:g=original	!	!	!
=74	=74	=74	=74	=74	=74	=74	=74	=74	=74	=74	=74	=74
8D\L	.	8d\L	.	4ryy	16dd\LL	.	4dd\	.	[>1c	[1cc	1ff#	1aa
.	.	.	.	.	16ff# 16a\	.	.	.	.	.	.	.
8D\	.	8d\	.	.	16ff# 16a\	.	.	.	.	.	.	.
.	.	.	.	.	16ff#JJ 16a\	.	.	.	.	.	.	.
*	*	*	*	*tremolo	*tremolo	*	*	*	*	*	*	*
8F#\	.	8f#\	.	16ff#/LL	16a\LL	.	8r	.	.	.	.	.
.	.	.	.	16ff#/	16a\	.	.	.	.	.	.	.
8F#\J	.	8f#\J	.	16ff#/	16a\	.	8aa 8a/	.	.	.	.	.
.	.	.	.	16ff#/JJ	16a\JJ	.	.	.	.	.	.	.
8A\L	.	8a\L	.	16ff#/LL	16a\LL	.	2aa 2a/	.	.	.	.	.
.	.	.	.	16ff#/	16a\	.	.	.	.	.	.	.
8A\	.	8a\	.	16ff#/	16a\	.	.	.	.	.	.	.
.	.	.	.	16ff#/	16a\	.	.	.	.	.	.	.
8d\	.	8dd\	.	16ff#/	16a\	.	.	.	.	.	.	.
.	.	.	.	16ff#/	16a\	.	.	.	.	.	.	.
8d\J	.	8dd\J	.	16ff#/	16a\	.	.	.	.	.	.	.
.	.	.	.	16ff#/JJ	16a\JJ	.	.	.	.	.	.	.
*	*	*	*	*v	*v	*	*	*	*	*	*	*
=75	=75	=75	=75	=75	=75	=75	=75	=75	=75	=75	=75
8D\L	.	8d\L	.	16gg 16bLL	.	4bb\	.	1c_>	1cc_	1gg	1bb
.	.	.	.	16gg 16b	.	.	.	.	.	.	.
8D\	.	8d\	.	16gg 16b	.	.	.	.	.	.	.
.	.	.	.	16gg 16b	.	.	.	.	.	.	.
8G\	.	8g\	.	16gg 16b	.	16bb\LL	.	.	.	.	.
.	.	.	.	16gg 16b	.	16aa\	.	.	.	.	.
8G\J	.	8g\J	.	16gg 16b	.	16bb\	.	.	.	.	.
.	.	.	.	16gg 16b	.	16ccc#\JJ	.	.	.	.	.
8B\L	.	8b\L	.	16gg 16b	.	4ddd\	.	.	.	.	.
.	.	.	.	16gg 16b	.	.	.	.	.	.	.
8B\	.	8b\	.	16gg 16b	.	.	.	.	.	.	.
.	.	.	.	16gg 16b	.	.	.	.	.	.	.
8d\	.	8dd\	.	16gg 16b	.	4bb\	.	.	.	.	.
.	.	.	.	16gg 16b	.	.	.	.	.	.	.
8d\J	.	8dd\J	.	16gg 16b	.	.	.	.	.	.	.
.	.	.	.	16gg 16bJJ	.	.	.	.	.	.	.
=76	=76	=76	=76	=76	=76	=76	=76	=76	=76	=76	=76
8D\L	.	8d\L	.	16ff# 16aLL	.	4aa\	.	1c_>	1cc_	1ff#	1aa
.	.	.	.	16ff# 16a	.	.	.	.	.	.	.
8D\	.	8d\	.	16ff# 16a	.	.	.	.	.	.	.
.	.	.	.	16ff# 16a	.	.	.	.	.	.	.
8F#\	.	8f#\	.	16ff# 16a	.	8r	.	.	.	.	.
.	.	.	.	16ff# 16a	.	.	.	.	.	.	.
8F#\J	.	8f#\J	.	16ff# 16a	.	8aa 8a/	.	.	.	.	.
.	.	.	.	16ff# 16a	.	.	.	.	.	.	.
*	*	*	*	*	*	*tremolo	*	*	*	*	*
8A\L	.	8a\L	.	16ff# 16a	.	8aa 8a/L	.	.	.	.	.
.	.	.	.	16ff# 16a	.	.	.	.	.	.	.
8A\	.	8a\	.	16ff# 16a	.	8aa 8a/	.	.	.	.	.
.	.	.	.	16ff# 16a	.	.	.	.	.	.	.
8d\	.	8dd\	.	16ff# 16a	.	8aa 8a/	.	.	.	.	.
.	.	.	.	16ff# 16a	.	.	.	.	.	.	.
8d\J	.	8dd\J	.	16ff# 16a	.	8aa 8a/J	.	.	.	.	.
.	.	.	.	16ff# 16aJJ	.	.	.	.	.	.	.
=77	=77	=77	=77	=77	=77	=77	=77	=77	=77	=77	=77
8D\L	.	8d\L	.	16gg 16bLL	.	4bb\	.	1c_>	1cc_	1gg	1bb
.	.	.	.	16gg 16b	.	.	.	.	.	.	.
8D\	.	8d\	.	16gg 16b	.	.	.	.	.	.	.
.	.	.	.	16gg 16b	.	.	.	.	.	.	.
8G\	.	8g\	.	16gg 16b	.	16bb 16aa\LL	.	.	.	.	.
!	!	!	!	!	!	!LO:TX:a:t=a	!	!	!	!	!
.	.	.	.	16gg 16b	.	16bb 16aa\	.	.	.	.	.
8G\J	.	8g\J	.	16gg 16b	.	16bb\	.	.	.	.	.
.	.	.	.	16gg 16b	.	16ccc#\JJ	.	.	.	.	.
!	!	!LO:LB:g=original	!	!	!	!	!	!	!	!	!
8B\L	.	8b\L	.	16gg 16b	.	4ddd\	.	.	.	.	.
.	.	.	.	16gg 16b	.	.	.	.	.	.	.
8B\	.	8b\	.	16gg 16b	.	.	.	.	.	.	.
.	.	.	.	16gg 16b	.	.	.	.	.	.	.
8d\	.	8dd\	.	16gg 16b	.	4bb\	.	.	.	.	.
.	.	.	.	16gg 16b	.	.	.	.	.	.	.
8d\J	.	8dd\J	.	16gg 16b	.	.	.	.	.	.	.
.	.	.	.	16gg 16bJJ	.	.	.	.	.	.	.
!	!	!	!	!	!	!	!	!	!	!	!LO:LB:g=original
=78	=78	=78	=78	=78	=78	=78	=78	=78	=78	=78	=78
*	*	*tremolo	*	*	*	*	*	*	*	*	*
8D\L	.	16d\LL	.	16ff# 16aLL	.	4aa\	.	1c_>	1cc_	4ff#\	4aa\
.	.	16d\	.	16ff# 16a	.	.	.	.	.	.	.
8D\	.	16d\	.	16ff# 16a	.	.	.	.	.	.	.
.	.	16d\	.	16ff# 16a	.	.	.	.	.	.	.
8F#\	.	16d\	.	16ff# 16a	.	8r	.	.	.	4r	4r
.	.	16d\	.	16ff# 16a	.	.	.	.	.	.	.
8F#\J	.	16d\	.	16ff# 16a	.	8aa 8a/	.	.	.	.	.
.	.	16d\JJ	.	16ff# 16a	.	.	.	.	.	.	.
8A\L	.	16d\LL	.	16ff# 16a	.	8aa 8a/L	.	.	.	2r	2r
.	.	16d\	.	16ff# 16a	.	.	.	.	.	.	.
8A\	.	16d\	.	16ff# 16a	.	8aa 8a/	.	.	.	.	.
.	.	16d\	.	16ff# 16a	.	.	.	.	.	.	.
8d\	.	16d\	.	16ff# 16a	.	8aa 8a/	.	.	.	.	.
.	.	16d\	.	16ff# 16a	.	.	.	.	.	.	.
8d\J	.	16d\	.	16ff# 16a	.	8aa 8a/J	.	.	.	.	.
.	.	16d\JJ	.	16ff# 16aJJ	.	.	.	.	.	.	.
!LO:LB:g=original	!	!	!	!	!	!	!	!	!	!	!
=79	=79	=79	=79	=79	=79	=79	=79	=79	=79	=79	=79
*	*	*	*	*	*	*^	*	*	*	*	*
!	!	!LO:TX:b:i:t=Segue	!	!	!	!	!	!	!	!	!LO:TX:a:t=7	!LO:TX:a:t=7
8Dn\L	.	16dLL	.	16ff# 16aLL	.	(<16aa/LL	4a\	.	1c_>	1cc_	00r	00r
.	.	16d	.	16ff# 16a	.	16gg/J	.	.	.	.	.	.
8D\	.	16d	.	16ff# 16a	.	8ff#/J)	.	.	.	.	.	.
.	.	16d	.	16ff# 16a	.	.	.	.	.	.	.	.
8F#\	.	16d	.	16ff# 16a	.	8r	8r	.	.	.	.	.
.	.	16d	.	16ff# 16a	.	.	.	.	.	.	.	.
8F#\J	.	16d	.	16ff# 16a	.	8aa 8a/	8ryy	.	.	.	.	.
.	.	16d	.	16ff# 16a	.	.	.	.	.	.	.	.
!LO:TX:t=P:problem:mixed beam	!	!	!	!	!	!	!	!	!	!	!	!
8A\L	.	16d	.	16ff# 16a	.	8ff# 8a/L	4ryy	.	.	.	.	.
.	.	16d	.	16ff# 16a	.	.	.	.	.	.	.	.
8A\	.	16d	.	16ff# 16a	.	8aa/	.	.	.	.	.	.
.	.	16d	.	16ff# 16a	.	.	.	.	.	.	.	.
!	!	!	!	!	!	!LO:TX:t=P:problem:trochę namazane	!	!	!	!	!	!
!	!	!	!	!	!	!LO:TX:b:t=f	!	!	!	!	!	!
8C#/	.	16d	.	16ff# 16a	.	8gg 8ff#/	4ryy	.	.	.	.	.
.	.	16d	.	16ff# 16a	.	.	.	.	.	.	.	.
!	!	!	!	!	!	!LO:TX:b:t=d	!	!	!	!	!	!
8C#/J	.	16d	.	16ff# 16a	.	8ff# 8dd/J	.	.	.	.	.	.
.	.	16dJJ	.	16ff# 16aJJ	.	.	.	.	.	.	.	.
*	*	*	*	*	*	*v	*v	*	*	*	*	*
!	!	!	!	!LO:LB:g=original	!	!	!	!	!	!	!
=80	=80	=80	=80	=80	=80	=80	=80	=80	=80	=80	=80
8BB/L	.	16dLL	.	16ggLL	.	16gg\LL	.	4c/]	4cc\]	.	.
.	.	16d	.	16gg	.	16aa\J	.	.	.	.	.
8BB/	.	16d	.	16gg	.	8bb\J	.	.	.	.	.
.	.	16d	.	16gg	.	.	.	.	.	.	.
8D/	.	16d	.	16gg	.	8r	.	4r	4r	.	.
.	.	16d	.	16gg	.	.	.	.	.	.	.
8D/J	.	16d	.	16gg	.	8ddd\	.	.	.	.	.
.	.	16d	.	16gg	.	.	.	.	.	.	.
8G\L	.	16d	.	16gg	.	8ddd\L	.	2r	2r	.	.
.	.	16d	.	16gg	.	.	.	.	.	.	.
8G\	.	16d	.	16gg	.	8ddd\	.	.	.	.	.
.	.	16d	.	16gg	.	.	.	.	.	.	.
8B\	.	16d	.	16gg	.	8ddd\	.	.	.	.	.
.	.	16d	.	16gg	.	.	.	.	.	.	.
8B\J	.	16d	.	16gg	.	8ddd\J	.	.	.	.	.
.	.	16dJJ	.	16ggJJ	.	.	.	.	.	.	.
=81	=81	=81	=81	=81	=81	=81	=81	=81	=81	=81	=81
8BB/L	.	16dLL	.	16ggLL	.	16ddd\LL	.	1cc	1cc	.	.
.	.	16d	.	16gg	.	16ccc#\J	.	.	.	.	.
8BB/	.	16d	.	16gg	.	8bb\J	.	.	.	.	.
.	.	16d	.	16gg	.	.	.	.	.	.	.
8D/	.	16d	.	16gg	.	8r	.	.	.	.	.
.	.	16d	.	16gg	.	.	.	.	.	.	.
8D/J	.	16d	.	16gg	.	8ddd\	.	.	.	.	.
.	.	16d	.	16gg	.	.	.	.	.	.	.
8G\L	.	16d	.	16gg	.	8ddd\L	.	.	.	.	.
.	.	16d	.	16gg	.	.	.	.	.	.	.
8G\	.	16d	.	16gg	.	8ddd\	.	.	.	.	.
.	.	16d	.	16gg	.	.	.	.	.	.	.
8B\	.	16d	.	16gg	.	8ddd\	.	.	.	.	.
.	.	16d	.	16gg	.	.	.	.	.	.	.
8B\J	.	16d	.	16gg	.	8ddd\J	.	.	.	.	.
.	.	16dJJ	.	16ggJJ	.	.	.	.	.	.	.
!	!	!	!	!	!	!LO:LB:g=original	!	!	!	!	!
=82	=82	=82	=82	=82	=82	=82	=82	=82	=82	=82	=82
!	!	!	!	!	!	!LO:N:vis=32	!	!	!	!	!
8F#\L	.	16dLL	.	16aaLL	.	(16aa\LL	.	4cc\	4cc\	.	.
!	!	!	!	!	!	!LO:N:vis=32	!	!	!	!	!
.	.	16d	.	16aa	.	16bb\J	.	.	.	.	.
!	!	!	!	!	!	!LO:TX:a:t=P:problem:kasownik na pięciolinii	!	!	!	!	!
8F#\	.	16d	.	16aa	.	8cccn\J)	.	.	.	.	.
.	.	16d	.	16aa	.	.	.	.	.	.	.
8A\	.	16d	.	16aa	.	8r	.	4r	4r	.	.
.	.	16d	.	16aa	.	.	.	.	.	.	.
8A\J	.	16d	.	16aa	.	8ccc\	.	.	.	.	.
.	.	16d	.	16aa	.	.	.	.	.	.	.
8cn\L	.	16d	.	16aa	.	8ccc\L	.	2r	2r	.	.
.	.	16d	.	16aa	.	.	.	.	.	.	.
8c\	.	16d	.	16aa	.	8ccc\	.	.	.	.	.
.	.	16d	.	16aa	.	.	.	.	.	.	.
8A\	.	16d	.	16aa	.	8ccc\	.	.	.	.	.
.	.	16d	.	16aa	.	.	.	.	.	.	.
8A\J	.	16d	.	16aa	.	8ccc\J	.	.	.	.	.
.	.	16dJJ	.	16aaJJ	.	.	.	.	.	.	.
=83	=83	=83	=83	=83	=83	=83	=83	=83	=83	=83	=83
!	!	!	!	!	!	!LO:N:vis=32	!	!LO:TX:t=P:problem:brak dwóch taktów	!	!	!
8F#\L	.	16dLL	.	16aaLL	.	(16ccc#\LL	.	1ryy	1gg	0r	0r
!	!	!	!	!	!	!LO:N:vis=32	!	!	!	!	!
.	.	16d	.	16aa	.	16bb\J	.	.	.	.	.
8F#\	.	16d	.	16aa	.	8aa\J)	.	.	.	.	.
.	.	16d	.	16aa	.	.	.	.	.	.	.
8A\	.	16d	.	16aa	.	8r	.	.	.	.	.
.	.	16d	.	16aa	.	.	.	.	.	.	.
8A\J	.	16d	.	16aa	.	8ccc#\	.	.	.	.	.
.	.	16d	.	16aa	.	.	.	.	.	.	.
8c#\L	.	16d	.	16aa	.	8ccc#\L	.	.	.	.	.
.	.	16d	.	16aa	.	.	.	.	.	.	.
8c#\	.	16d	.	16aa	.	8ccc#\	.	.	.	.	.
.	.	16d	.	16aa	.	.	.	.	.	.	.
8F#\	.	16d	.	16aa	.	8ccc#\	.	.	.	.	.
.	.	16d	.	16aa	.	.	.	.	.	.	.
8F#\J	.	16d	.	16aa	.	8ccc#\J	.	.	.	.	.
.	.	16dJJ	.	16aaJJ	.	.	.	.	.	.	.
*	*	*	*	*Xtremolo	*	*	*	*	*	*	*
=84	=84	=84	=84	=84	=84	=84	=84	=84	=84	=84	=84
4G\	.	4d\	.	(8aa\L	.	(8ccc#\L	.	1ryy	4cc\	.	.
.	.	.	.	8gg\)	.	8bb\)	.	.	.	.	.
4r	.	4r	.	8gg\|	.	8bb\|	.	.	4r	.	.
.	.	.	.	8gg\J|	.	8bb\J|	.	.	.	.	.
2r	.	2r	.	(8gg\L	.	(8bb\L	.	.	2r	.	.
.	.	.	.	8ff#\)	.	8aa\)	.	.	.	.	.
.	.	.	.	8ff#\|	.	8aa\|	.	.	.	.	.
.	.	.	.	8ff#\J|	.	8aa\J|	.	.	.	.	.
=85	=85	=85	=85	=85	=85	=85	=85	=85	=85	=85	=85
2r	.	1r	.	(8ff#\L	.	(8aa\L	.	1r	1r	1r	1r
.	.	.	.	8ee\)	.	8gg\)	.	.	.	.	.
.	.	.	.	8ee\|	.	8gg\|	.	.	.	.	.
.	.	.	.	8ee\J|	.	8gg\J|	.	.	.	.	.
2GG#X/	.	.	.	(8ee\L	.	(8gg\L	.	.	.	.	.
.	.	.	.	8dd\)	.	8ff#\)	.	.	.	.	.
.	.	.	.	8dd\|	.	8ff#\|	.	.	.	.	.
.	.	.	.	8dd\J|	.	8ff#\J|	.	.	.	.	.
=86	=86	=86	=86	=86	=86	=86	=86	=86	=86	=86	=86
8AA/L	.	16e\LL	.	16cc#\LL	.	4ee 4a/	.	4g/	4dd\	4.cc#\	4ee\
.	.	16e\	.	16cc#\	.	.	.	.	.	.	.
8AA/	.	16e\	.	16cc#\	.	.	.	.	.	.	.
.	.	16e\	.	16cc#\JJ	.	.	.	.	.	.	.
*	*	*	*	*tremolo	*	*	*	*	*	*	*
8C#/	.	16e\	.	16cc#\LL	.	8r	.	8r	8r	.	8r
.	.	16e\	.	16cc#\	.	.	.	.	.	.	.
8C#/J	.	16e\	.	16cc#\	.	8gg 8a/	.	8g/	8dd\	16cc#\LL	8gg\
!	!	!	!	!	!	!	!	!	!	!LO:TX:t=P:problem:ucięta strona,zapis prawdopodobny	!
.	.	16e\JJ	.	16cc#\JJ	.	.	.	.	.	16dd\JJyy	.
!LO:LB:g=original	!	!	!	!	!	!	!	!	!	!LO:LB:g=original	!
8E\L	.	16e\LL	.	16cc#\LL	.	8gg 8a/L	.	8g/L	8dd\L	8cc#\L	8gg\L
.	.	16e\	.	16cc#\	.	.	.	.	.	.	.
8E\	.	16e\	.	16cc#\	.	8gg 8a/	.	8g/	8dd\	8cc#\	8gg\
.	.	16e\	.	16cc#\	.	.	.	.	.	.	.
8A\	.	16e\	.	16cc#\	.	8gg 8a/	.	8g/	8dd\	8cc#\	8gg\
.	.	16e\	.	16cc#\	.	.	.	.	.	.	.
8A\J	.	16e\	.	16cc#\	.	8gg 8a/J	.	8g/J	8dd\J	8cc#\J	8gg\J
.	.	16e\JJ	.	16cc#\JJ	.	.	.	.	.	.	.
*	*	*Xtremolo	*	*	*	*	*	*	*	*	*
=87	=87	=87	=87	=87	=87	=87	=87	=87	=87	=87	=87
8AA/L	.	8A/L	.	16dd\LL	.	4ff# 4a/	.	1cc	1ee	4dd\	4ff#\
.	.	.	.	16dd\	.	.	.	.	.	.	.
8AA/	.	8A/	.	16dd\	.	.	.	.	.	.	.
.	.	.	.	16dd\JJ	.	.	.	.	.	.	.
8D/	.	8d/	.	16ff#\LL	.	4aa 4a 4d/	.	.	.	4ff#\	4aa\
.	.	.	.	16ff#\	.	.	.	.	.	.	.
8D/J	.	8d/J	.	16ff#\	.	.	.	.	.	.	.
.	.	.	.	16ff#\JJ	.	.	.	.	.	.	.
8F#\L	.	8f#\L	.	16aa\LL	.	4ddd 4a 4d/	.	.	.	4aa\	4ddd\
.	.	.	.	16aa\	.	.	.	.	.	.	.
8F#\	.	8f#\	.	16aa\	.	.	.	.	.	.	.
.	.	.	.	16aa\JJ	.	.	.	.	.	.	.
8A\	.	8a\	.	16dd\LL	.	4ff# 4a 4d/	.	.	.	4dd\	4ff#\
.	.	.	.	16dd\	.	.	.	.	.	.	.
8A\J	.	8a\J	.	16dd\	.	.	.	.	.	.	.
.	.	.	.	16dd\JJ	.	.	.	.	.	.	.
=88	=88	=88	=88	=88	=88	=88	=88	=88	=88	=88	=88
*	*	*tremolo	*	*	*	*	*	*	*	*	*
8AA/L	.	16e\LL	.	16cc#\LL	.	4ee 4cc# 4a/	.	4g/	4dd\	4cc#\	4ee\
.	.	16e\	.	16cc#\	.	.	.	.	.	.	.
8AA/	.	16e\	.	16cc#\	.	.	.	.	.	.	.
.	.	16e\	.	16cc#\	.	.	.	.	.	.	.
8C#/	.	16e\	.	16cc#\	.	8r	.	8r	8r	8r	8r
.	.	16e\	.	16cc#\	.	.	.	.	.	.	.
8C#/J	.	16e\	.	16cc#\	.	8gg 8a/	.	8g/	8dd\	8cc#\	8gg\
.	.	16e\JJ	.	16cc#\JJ	.	.	.	.	.	.	.
!	!	!	!	!	!	!	!	!	!LO:LB:g=original	!	!
8E\L	.	16e\LL	.	16cc#\LL	.	8gg 8a/L	.	8g/L	8dd\L	8cc#\L	8gg\L
.	.	16e\	.	16cc#\	.	.	.	.	.	.	.
8E\	.	16e\	.	16cc#\	.	8gg 8a/	.	8g/	8dd\	8cc#\	8gg\
.	.	16e\	.	16cc#\	.	.	.	.	.	.	.
8A\	.	16e\	.	16cc#\	.	8gg 8a/	.	8g/	8dd\	8cc#\	8gg\
.	.	16e\	.	16cc#\	.	.	.	.	.	.	.
8A\J	.	16e\	.	16cc#\	.	8gg 8a/J	.	8g/J	8dd\J	8cc#\J	8gg\J
.	.	16e\JJ	.	16cc#\JJ	.	.	.	.	.	.	.
*	*	*Xtremolo	*	*	*	*Xtremolo	*	*	*	*	*
=89	=89	=89	=89	=89	=89	=89	=89	=89	=89	=89	=89
!	!	!	!	!LO:TX:a:t=d	!	!	!	!	!	!	!
8AA/L	.	8A/L	.	16ff# 16dd\LL	.	4ff# 4a/	.	1cc	1ee	4dd\	4ff#\
.	.	.	.	16ff# 16dd\	.	.	.	.	.	.	.
8AA/	.	8A/	.	16ff# 16dd\	.	.	.	.	.	.	.
.	.	.	.	16ff# 16dd\JJ	.	.	.	.	.	.	.
8D/	.	8d/	.	16ff#\LL	.	4aa 4a 4d/	.	.	.	4ff#\	4aa\
.	.	.	.	16ff#\	.	.	.	.	.	.	.
8D/J	.	8d/J	.	16ff#\	.	.	.	.	.	.	.
.	.	.	.	16ff#\JJ	.	.	.	.	.	.	.
!	!	!LO:LB:g=original	!	!	!	!	!	!	!	!	!
8F#\L	.	8f#\L	.	16aa\LL	.	4ddd 4a 4d/	.	.	.	4aa\	4ddd\
.	.	.	.	16aa\	.	.	.	.	.	.	.
8F#\	.	8f#\	.	16aa\	.	.	.	.	.	.	.
.	.	.	.	16aa\JJ	.	.	.	.	.	.	.
8A\	.	8a\	.	16ff#\LL	.	4ff# 4a 4d/	.	.	.	4dd\	4ff#\
.	.	.	.	16ff#\	.	.	.	.	.	.	.
8A\J	.	8a\J	.	16ff#\	.	.	.	.	.	.	.
.	.	.	.	16ff#\JJ	.	.	.	.	.	.	.
*	*	*	*	*Xtremolo	*	*	*	*	*	*	*
!	!	!	!	!	!	!LO:LB:g=original	!	!	!	!	!
=90	=90	=90	=90	=90	=90	=90	=90	=90	=90	=90	=90
*	*	*	*	*^	*	*^	*	*	*	*	*
4AA/	.	4A/	.	4cc#\	4ryy	.	4ee 4cc#	4g\	.	4g/	4dd\	4cc#\	4ee\
4AA/	.	4A/	.	4ee/	4cc# 4a\	.	4aa 4cc# 4e/	2.ryy	.	4g/	4dd\	4cc#\	4aa\
4AA/	.	4A/	.	4ee/	4cc# 4a\	.	4aa 4cc# 4e/	.	.	4g/	4dd\	4cc#\	4aa\
4AA/	.	4A/	.	4ee/	4cc# 4a\	.	4aa 4cc# 4e/	.	.	4g/	4dd\	4cc#\	4aa\
*	*	*	*	*	*	*	*v	*v	*	*	*	*	*
=91	=91	=91	=91	=91	=91	=91	=91	=91	=91	=91	=91	=91
*	*	*tremolo	*	*	*	*	*	*	*	*	*	*
!	!	!	!LO:DY:t=pn	!	!	!	!	!	!	!	!	!
4AA/	.	8a\L	p	4ee/	4cc# 4a\	.	4aa 4cc# 4e/	.	4g/	4dd\	4cc#\	4aa\
.	.	8a\	.	.	.	.	.	.	.	.	.	.
4r	.	8a\	.	4r	4ryy	.	4r	.	4r	4r	4r	4r
.	.	8a\J	.	.	.	.	.	.	.	.	.	.
2r	.	8a\L	.	2r	2ryy	.	2r	.	2r	2r	2r	2r
.	.	8a\	.	.	.	.	.	.	.	.	.	.
.	.	8a\	.	.	.	.	.	.	.	.	.	.
.	.	8a\J	.	.	.	.	.	.	.	.	.	.
*	*	*	*	*v	*v	*	*	*	*	*	*	*
=92	=92	=92	=92	=92	=92	=92	=92	=92	=92	=92	=92
!LO:TX:a:t=11	!	!LO:TX:b:i:t=Segue	!	!	!	!	!	!LO:TX:a:t=11	!LO:TX:a:t=11	!LO:TX:a:t=11	!LO:TX:a:t=11
00r	.	8aL	.	4.ee\	p	4.gg\	p	00r	00r	00r	00r
.	.	8a	.	.	.	.	.	.	.	.	.
.	.	8a	.	.	.	.	.	.	.	.	.
.	.	8a	.	(16ff#\LL	.	(16aa\LL	.	.	.	.	.
.	.	.	.	16ee\JJ)	.	16gg\JJ)	.	.	.	.	.
.	.	8a	.	4dd\	.	4ff#\	.	.	.	.	.
.	.	8a	.	.	.	.	.	.	.	.	.
.	.	8a	.	4cc#\	.	4ee\	.	.	.	.	.
.	.	8aJ	.	.	.	.	.	.	.	.	.
=93	=93	=93	=93	=93	=93	=93	=93	=93	=93	=93	=93
.	.	8aL	.	4.ff#\	.	(4.aa\	.	.	.	.	.
.	.	8a	.	.	.	.	.	.	.	.	.
.	.	8a	.	.	.	.	.	.	.	.	.
.	.	8a	.	8dd\	.	8ff#\)	.	.	.	.	.
.	.	8a	.	4ff#\	.	4aa\	.	.	.	.	.
.	.	8a	.	.	.	.	.	.	.	.	.
.	.	8a	.	4r	.	4r	.	.	.	.	.
.	.	8aJ	.	.	.	.	.	.	.	.	.
!	!	!	!	!LO:LB:g=original	!	!	!	!	!	!	!
=94	=94	=94	=94	=94	=94	=94	=94	=94	=94	=94	=94
.	.	8aL	.	4.ee\	.	4.gg\	.	.	.	.	.
.	.	8a	.	.	.	.	.	.	.	.	.
.	.	8a	.	.	.	.	.	.	.	.	.
.	.	8a	.	16ff#\LL	.	(16aa\LL	.	.	.	.	.
.	.	.	.	16ee\JJ	.	16gg\JJ)	.	.	.	.	.
.	.	8a	.	4dd\	.	4ff#\	.	.	.	.	.
.	.	8a	.	.	.	.	.	.	.	.	.
.	.	8a	.	4cc#\	.	4ee\	.	.	.	.	.
.	.	8aJ	.	.	.	.	.	.	.	.	.
=95	=95	=95	=95	=95	=95	=95	=95	=95	=95	=95	=95
.	.	8aL	.	(4.ff#\	.	(4.aa\	.	.	.	.	.
.	.	8a	.	.	.	.	.	.	.	.	.
.	.	8a	.	.	.	.	.	.	.	.	.
.	.	8a	.	8dd\	.	8ff#\)	.	.	.	.	.
.	.	8a	.	4ff#\)	.	4aa\	.	.	.	.	.
.	.	8a	.	.	.	.	.	.	.	.	.
.	.	8a	.	4r	.	4r	.	.	.	.	.
.	.	8aJ	.	.	.	.	.	.	.	.	.
=96	=96	=96	=96	=96	=96	=96	=96	=96	=96	=96	=96
!	!	!LO:TX:b:i:t=ten	!	!	!	!	!	!	!	!	!
00r	.	[1g	.	(4.g/	.	(4.bb\	.	00r	00r	00r	00r
.	.	.	.	8a/)	.	8ccc#\)	.	.	.	.	.
.	.	.	.	4b\	.	4ddd\	.	.	.	.	.
.	.	.	.	4b\	.	4ddd\	.	.	.	.	.
=97	=97	=97	=97	=97	=97	=97	=97	=97	=97	=97	=97
.	.	1g]	.	1b	.	(8ddd\	.	.	.	.	.
.	.	.	.	.	.	4ee\	.	.	.	.	.
.	.	.	.	.	.	8ff#\)	.	.	.	.	.
.	.	.	.	.	.	8qaa/	.	.	.	.	.
.	.	.	.	.	.	4gg\	.	.	.	.	.
.	.	.	.	.	.	8ff#\L	.	.	.	.	.
.	.	.	.	.	.	8ee\J	.	.	.	.	.
=98	=98	=98	=98	=98	=98	=98	=98	=98	=98	=98	=98
.	.	4f#\	.	4.d/	.	4.aa\	.	.	.	.	.
.	.	4g\	.	.	.	.	.	.	.	.	.
.	.	.	.	8g/	.	8bb\	.	.	.	.	.
.	.	.	.	8qqf#/	.	8qqdd/	.	.	.	.	.
.	.	4a\	.	2e/	.	2cc#\	.	.	.	.	.
.	.	4A/	.	.	.	.	.	.	.	.	.
=99	=99	=99	=99	=99	=99	=99	=99	=99	=99	=99	=99
.	.	4d\	.	4d/	.	8r	.	.	.	.	.
.	.	.	.	.	.	8dd\L	.	.	.	.	.
.	.	4r	.	4r	.	8ee\	.	.	.	.	.
.	.	.	.	.	.	8ff#\J	.	.	.	.	.
.	.	2r	.	4r	.	8gg\L	.	.	.	.	.
.	.	.	.	.	.	8gg#X\	.	.	.	.	.
.	.	.	.	4f#/	.	8aa\	.	.	.	.	.
!	!	!	!	!	!	!LO:TX:a:t=P:problem:# above	!	!	!	!	!
.	.	.	.	.	.	8aa#X\J	.	.	.	.	.
!	!	!	!	!	!	!LO:LB:g=original	!	!	!	!	!
=100	=100	=100	=100	=100	=100	=100	=100	=100	=100	=100	=100
0r	.	[1g	.	4.g/	.	(4.bb\	.	0r	0r	0r	0r
.	.	.	.	8a/	.	8ccc#\)	.	.	.	.	.
.	.	.	.	4b\	.	4ddd\	.	.	.	.	.
.	.	.	.	4b\	.	4ddd\	.	.	.	.	.
=101	=101	=101	=101	=101	=101	=101	=101	=101	=101	=101	=101
.	.	1g]	.	1b	.	8ddd\	.	.	.	.	.
.	.	.	.	.	.	4ee\	.	.	.	.	.
.	.	.	.	.	.	8ff#\	.	.	.	.	.
.	.	.	.	.	.	8qqaa/	.	.	.	.	.
.	.	.	.	.	.	4gg\	.	.	.	.	.
.	.	.	.	.	.	8ff#\L	.	.	.	.	.
.	.	.	.	.	.	8ee\J	.	.	.	.	.
=102	=102	=102	=102	=102	=102	=102	=102	=102	=102	=102	=102
1r	.	4f#\	.	4.d/	.	4.aa\	.	1r	1r	1r	1r
.	.	4g\	.	.	.	.	.	.	.	.	.
.	.	.	.	8g/	.	8bb\	.	.	.	.	.
.	.	.	.	8qqf#/	.	8qqdd/	.	.	.	.	.
.	.	4a\	.	2e/	.	2cc#\	.	.	.	.	.
.	.	4A/	.	.	.	.	.	.	.	.	.
!	!	!	!	!	!	!	!	!LO:LB:g=original	!	!	!
=103	=103	=103	=103	=103	=103	=103	=103	=103	=103	=103	=103
*	*	*	*	*^	*	*	*	*	*	*	*
4D\	.	4d\	.	2.ryy	16f#/LL	.	16dd\	.	4cc\	4ee\	4dd\	4dd\
.	.	.	.	.	16f#/	.	16aaLL 16a\	.	.	.	.	.
.	.	.	.	.	16f#/	.	16aa 16a\	.	.	.	.	.
.	.	.	.	.	16f#/JJ	.	16aaJJ 16a\	.	.	.	.	.
*	*	*	*	*	*tremolo	*	*tremolo	*	*	*	*	*
4r	.	4r	.	.	16a/LL	.	16aa 16a/LL	.	4r	4r	4a/	4aa\
.	.	.	.	.	16a/	.	16aa 16a/	.	.	.	.	.
.	.	.	.	.	16a/	.	16aa 16a/	.	.	.	.	.
.	.	.	.	.	16a/JJ	.	16aa 16a/JJ	.	.	.	.	.
!	!	!	!LO:DY:t=for	!	!	!	!	!	!	!	!	!
4.D\	.	4.f#\	f	.	16dd\LL	.	16aa 16a/LL	.	4.cc\	4.ee\	4dd\	4aa\
.	.	.	.	.	16dd\	.	16aa 16a/	.	.	.	.	.
.	.	.	.	.	16dd\	.	16aa 16a/	.	.	.	.	.
.	.	.	.	.	16dd\JJ	.	16aa 16a/	.	.	.	.	.
*	*	*	*	*tremolo	*	*	*	*	*	*	*	*
.	.	.	.	16ff#/LL	16a\LL	.	16aa 16a/	.	.	.	4ff#\	[<4aa\
.	.	.	.	16ff#/	16a\	.	16aa 16a/	.	.	.	.	.
8D\	.	8f#\	.	16ff#/	16a\	.	16aa 16a/	.	8cc\	8ee\	.	.
.	.	.	.	16ff#/JJ	16a\JJ	.	16aa 16a/JJ	.	.	.	.	.
*	*	*	*	*v	*v	*	*	*	*	*	*	*
!	!	!LO:LB:g=original	!	!	!	!	!	!	!	!	!
=104	=104	=104	=104	=104	=104	=104	=104	=104	=104	=104	=104
4C#/	.	4e\	.	16gg\LL	.	16aa 16aLL	.	4g/	4dd\	4gg\	1aa_<
.	.	.	.	16gg\	.	16aa 16a	.	.	.	.	.
.	.	.	.	16gg\	.	16aa 16a	.	.	.	.	.
.	.	.	.	16gg\JJ	.	16aa 16a	.	.	.	.	.
4r	.	4r	.	16ee\LL	.	16aa 16a	.	4r	4r	4ee\	.
.	.	.	.	16ee\	.	16aa 16a	.	.	.	.	.
.	.	.	.	16ee\	.	16aa 16a	.	.	.	.	.
.	.	.	.	16ee\JJ	.	16aa 16a	.	.	.	.	.
!LO:LB:g=original	!	!	!	!	!	!	!	!	!	!	!
4.G\	.	4.e\	.	16cc#\LL	.	16aa 16a	.	4.g/	4.dd\	4cc#\	.
.	.	.	.	16cc#\	.	16aa 16a	.	.	.	.	.
.	.	.	.	16cc#\	.	16aa 16a	.	.	.	.	.
.	.	.	.	16cc#\JJ	.	16aa 16a	.	.	.	.	.
.	.	.	.	16a/LL	.	16aa 16a	.	.	.	4a/	.
.	.	.	.	16a/	.	16aa 16a	.	.	.	.	.
8G\	.	8c#X\	.	16a/	.	16aa 16a	.	8g/	8dd\	.	.
.	.	.	.	16a/JJ	.	16aa 16aJJ	.	.	.	.	.
=105	=105	=105	=105	=105	=105	=105	=105	=105	=105	=105	=105
*	*	*	*	*^	*	*	*	*	*	*	*
4F#\	.	4d\	.	2ryy	4dd\	.	16aa 16aLL	.	4cc\	4ee\	4dd\	1aa_<
.	.	.	.	.	.	.	16aa 16a	.	.	.	.	.
.	.	.	.	.	.	.	16aa 16a	.	.	.	.	.
.	.	.	.	.	.	.	16aa 16a	.	.	.	.	.
4A\	.	4r	.	.	4r	.	16aa 16a	.	4r	4r	4r	.
.	.	.	.	.	.	.	16aa 16a	.	.	.	.	.
.	.	.	.	.	.	.	16aa 16a	.	.	.	.	.
.	.	.	.	.	.	.	16aa 16a	.	.	.	.	.
4d\	.	4.f#\	.	4.dd/	4.d/	.	16aa 16a	.	2r	2r	4.dd\	.
.	.	.	.	.	.	.	16aa 16a	.	.	.	.	.
.	.	.	.	.	.	.	16aa 16a	.	.	.	.	.
.	.	.	.	.	.	.	16aa 16a	.	.	.	.	.
4F#\	.	.	.	.	.	.	16aa 16a	.	.	.	.	.
.	.	.	.	.	.	.	16aa 16a	.	.	.	.	.
.	.	8f#\	.	8dd/	8ryy	.	16aa 16a	.	.	.	8dd\	.
.	.	.	.	.	.	.	16aa 16aJJ	.	.	.	.	.
*	*	*	*	*v	*v	*	*	*	*	*	*	*
!	!	!	!	!	!	!	!	!	!	!	!LO:LB:g=original
=106	=106	=106	=106	=106	=106	=106	=106	=106	=106	=106	=106
4G\	.	4e\	.	4cc#\	.	16aa 16aLL	.	1g	1dd	4cc#\	1aa_<
.	.	.	.	.	.	16aa 16a	.	.	.	.	.
.	.	.	.	.	.	16aa 16a	.	.	.	.	.
.	.	.	.	.	.	16aa 16a	.	.	.	.	.
4E\	.	4r	.	4r	.	16aa 16a	.	.	.	4r	.
.	.	.	.	.	.	16aa 16a	.	.	.	.	.
.	.	.	.	.	.	16aa 16a	.	.	.	.	.
.	.	.	.	.	.	16aa 16a	.	.	.	.	.
!	!	!	!	!	!	!	!	!	!	!LO:LB:g=original	!
4C#/	.	4.e\	.	4.gg 4.a/	.	16aa 16a	.	.	.	4.gg\	.
.	.	.	.	.	.	16aa 16a	.	.	.	.	.
.	.	.	.	.	.	16aa 16a	.	.	.	.	.
.	.	.	.	.	.	16aa 16a	.	.	.	.	.
4AA/	.	.	.	.	.	16aa 16a	.	.	.	.	.
.	.	.	.	.	.	16aa 16a	.	.	.	.	.
.	.	8c#\	.	8gg 8a/	.	16aa 16a	.	.	.	8gg\	.
.	.	.	.	.	.	16aa 16aJJ	.	.	.	.	.
!	!	!	!	!LO:LB:g=original	!	!	!	!	!	!	!
=107	=107	=107	=107	=107	=107	=107	=107	=107	=107	=107	=107
*	*	*	*	*^	*	*	*	*	*	*	*
*	*	*	*	*Xtremolo	*tremolo	*	*	*	*	*	*	*
4D\	.	4d\	.	16ff#/LL	16a\LL	.	16aa 16aLL	.	4cc\	4ee\	1ff#	(<1aa]
.	.	.	.	16ff#/	16a\	.	16aa 16a	.	.	.	.	.
.	.	.	.	16ff#/	16a\	.	16aa 16a	.	.	.	.	.
.	.	.	.	16ff#/JJ	16a\	.	16aa 16a	.	.	.	.	.
*	*	*	*	*tremolo	*	*	*	*	*	*	*	*
4r	.	4r	.	16ff#/LL	16a\	.	16aa 16a	.	4r	4r	.	.
.	.	.	.	16ff#/	16a\	.	16aa 16a	.	.	.	.	.
.	.	.	.	16ff#/	16a\	.	16aa 16a	.	.	.	.	.
.	.	.	.	16ff#/JJ	16a\JJ	.	16aa 16a	.	.	.	.	.
4.d\	.	4.d\	.	16ff#/LL	16a\LL	.	16aa 16a	.	4.cc\	4.ee\	.	.
.	.	.	.	16ff#/	16a\	.	16aa 16a	.	.	.	.	.
.	.	.	.	16ff#/	16a\	.	16aa 16a	.	.	.	.	.
.	.	.	.	16ff#/	16a\	.	16aa 16a	.	.	.	.	.
.	.	.	.	16ff#/	16a\	.	16aa 16a	.	.	.	.	.
.	.	.	.	16ff#/	16a\	.	16aa 16a	.	.	.	.	.
8d\	.	8d\	.	16ff#/	16a\	.	16aa 16a	.	8cc\	8ee\	.	.
.	.	.	.	16ff#/JJ	16a\JJ	.	16aa 16aJJ	.	.	.	.	.
*	*	*	*	*Xtremolo	*Xtremolo	*	*Xtremolo	*	*	*	*	*
=108	=108	=108	=108	=108	=108	=108	=108	=108	=108	=108	=108	=108
*	*	*	*	*	*	*	*^	*	*	*	*	*
4G\	.	4G/	.	4gg/	4b/	.	4bb/	4dd 4d/	.	4cc\	4cc\	4gg\	4bb\)
4G\	.	4G/	.	4bb/	4b 4d/	.	4ddd/	4dd 4d/	.	4r	4r	4dd\	4gg\
4A\	.	4A/	.	4ff#/	4a 4d/	.	4ff#/	4a 4d/	.	4dd\	4ee\	4dd\	4ff#\
4AA/	.	4A/	.	4ee/	4cc# 4a\	.	4ee/	4cc# 4a\	.	4g/	4dd\	(4cc#\	4ee\
*	*	*	*	*	*	*	*v	*v	*	*	*	*	*
=109	=109	=109	=109	=109	=109	=109	=109	=109	=109	=109	=109	=109
*	*	*	*	*	*	*	*^	*	*	*	*	*
*	*	*	*	*	*Xtremolo	*	*	*Xtremolo	*	*	*	*	*
4D/	.	4d\	.	16ff#/LL	16dd\LL	.	4ryy	16ff#\LL	.	1cc	1ee	[1dd)	[1ff#
.	.	.	.	16ff#/	16dd\	.	.	16ddd\	.	.	.	.	.
.	.	.	.	16ff#/	16dd\	.	.	16ff#\	.	.	.	.	.
.	.	.	.	16ff#/JJ	16dd\JJ	.	.	16ddd\JJ	.	.	.	.	.
*	*	*	*	*tremolo	*tremolo	*	*tremolo	*tremolo	*	*	*	*	*
8r	.	8r	.	16ff#/LL	16dd\LL	.	16ddd/LL	16ff#\LL	.	.	.	.	.
.	.	.	.	16ff#/	16dd\	.	16ddd/	16ff#\	.	.	.	.	.
8D/	.	8d\	.	16ff#/	16dd\	.	16ddd/	16ff#\	.	.	.	.	.
.	.	.	.	16ff#/JJ	16dd\JJ	.	16ddd/JJ	16ff#\JJ	.	.	.	.	.
8F#\L	.	8f#\L	.	16ff#/LL	16dd\LL	.	16ddd/LL	16ff#\LL	.	.	.	.	.
.	.	.	.	16ff#/	16dd\	.	16ddd/	16ff#\	.	.	.	.	.
8A\	.	8a\	.	16ff#/	16dd\	.	16ddd/	16ff#\	.	.	.	.	.
.	.	.	.	16ff#/	16dd\	.	16ddd/	16ff#\	.	.	.	.	.
8F#\	.	8f#\	.	16ff#/	16dd\	.	16ddd/	16ff#\	.	.	.	.	.
.	.	.	.	16ff#/	16dd\	.	16ddd/	16ff#\	.	.	.	.	.
8D\J	.	8d\J	.	16ff#/	16dd\	.	16ddd/	16ff#\	.	.	.	.	.
.	.	.	.	16ff#/JJ	16dd\JJ	.	16ddd/JJ	16ff#\JJ	.	.	.	.	.
*	*	*	*	*	*	*	*v	*v	*	*	*	*	*
*	*	*	*	*v	*v	*	*	*	*	*	*	*
!	!	!	!	!	!	!	!	!	!LO:LB:g=original	!	!
=110	=110	=110	=110	=110	=110	=110	=110	=110	=110	=110	=110
4BB/	.	4B/	.	16ff# 16ddLL	.	16ddd 16ff#LL	.	1cc	1ee	1dd_	1ff#]
.	.	.	.	16ff# 16dd	.	16ddd 16ff#	.	.	.	.	.
.	.	.	.	16ff# 16dd	.	16ddd 16ff#	.	.	.	.	.
.	.	.	.	16ff# 16dd	.	16ddd 16ff#	.	.	.	.	.
8r	.	8r	.	16ff# 16dd	.	16ddd 16ff#	.	.	.	.	.
.	.	.	.	16ff# 16dd	.	16ddd 16ff#	.	.	.	.	.
8BB/	.	8B/	.	16ff# 16dd	.	16ddd 16ff#	.	.	.	.	.
.	.	.	.	16ff# 16dd	.	16ddd 16ff#	.	.	.	.	.
8D/L	.	8d\L	.	16ff# 16dd	.	16ddd 16ff#	.	.	.	.	.
.	.	.	.	16ff# 16dd	.	16ddd 16ff#	.	.	.	.	.
8F#/	.	8f#\	.	16ff# 16dd	.	16ddd 16ff#	.	.	.	.	.
.	.	.	.	16ff# 16dd	.	16ddd 16ff#	.	.	.	.	.
8D/	.	8d\	.	16ff# 16dd	.	16ddd 16ff#	.	.	.	.	.
.	.	.	.	16ff# 16dd	.	16ddd 16ff#	.	.	.	.	.
8BB/J	.	8B\J	.	16ff# 16dd	.	16ddd 16ff#	.	.	.	.	.
.	.	.	.	16ff# 16ddJJ	.	16ddd 16ff#JJ	.	.	.	.	.
=111	=111	=111	=111	=111	=111	=111	=111	=111	=111	=111	=111
4GG/	.	4G/	.	16ee 16ddLL	.	16ddd 16eeLL	.	4cc\	4cc\	(1dd]	1ee
.	.	.	.	16ee 16dd	.	16ddd 16ee	.	.	.	.	.
.	.	.	.	16ee 16dd	.	16ddd 16ee	.	.	.	.	.
.	.	.	.	16ee 16dd	.	16ddd 16ee	.	.	.	.	.
8r	.	8r	.	16ee 16dd	.	16ddd 16ee	.	4r	4r	.	.
.	.	.	.	16ee 16dd	.	16ddd 16ee	.	.	.	.	.
8G\	.	8g\	.	16ee 16dd	.	16ddd 16ee	.	.	.	.	.
.	.	.	.	16ee 16dd	.	16ddd 16ee	.	.	.	.	.
!	!	!LO:LB:g=original	!	!	!	!	!	!	!	!	!
8B\L	.	8b\L	.	16ee 16dd	.	16ddd 16ee	.	2r	2r	.	.
.	.	.	.	16ee 16dd	.	16ddd 16ee	.	.	.	.	.
8d\	.	8dd\	.	16ee 16dd	.	16ddd 16ee	.	.	.	.	.
.	.	.	.	16ee 16dd	.	16ddd 16ee	.	.	.	.	.
8B\	.	8b\	.	16ee 16dd	.	16ddd 16ee	.	.	.	.	.
.	.	.	.	16ee 16dd	.	16ddd 16ee	.	.	.	.	.
8G#X\J	.	8g#X\J	.	16ee 16dd	.	16ddd 16ee	.	.	.	.	.
.	.	.	.	16ee 16ddJJ	.	16ddd 16eeJJ	.	.	.	.	.
!LO:LB:g=original	!	!	!	!	!	!	!	!	!	!	!
=112	=112	=112	=112	=112	=112	=112	=112	=112	=112	=112	=112
*	*	*	*	*^	*	*	*	*	*	*	*
!LO:TX:t=P:problem:mixed beam	!	!LO:TX:t=P:problem:mixed beam	!	!	!	!	!	!	!	!	!	!
8A\L	.	8a\L	.	16ee/LL	16cc#\LL	.	16ccc#\LL	.	4g/	4dd\	4cc#\)	4ee\
.	.	.	.	16ee/	16cc#\	.	16ccc#\	.	.	.	.	.
8AA/	.	8A/	.	16ee/	16cc#\	.	16ccc#\	.	.	.	.	.
.	.	.	.	16ee/JJ	16cc#\JJ	.	16ccc#\JJ	.	.	.	.	.
8AA/	.	8A/	.	16a/LL	4ryy	.	16cc#\LL	.	4r	4r	4a\	4cc#\
.	.	.	.	16a/	.	.	16cc#\	.	.	.	.	.
8AA/J	.	8A/J	.	16a/	.	.	16cc#\	.	.	.	.	.
.	.	.	.	16a/JJ	.	.	16cc#\JJ	.	.	.	.	.
*tremolo	*	*	*	*	*	*	*	*	*	*	*	*
8AA/L	.	8A/L	.	16cc#\LL	2ryy	.	16ee\LL	.	2r	2r	4cc#\	4ee\
.	.	.	.	16cc#\	.	.	16ee\	.	.	.	.	.
8AA/	.	8A/	.	16cc#\	.	.	16ee\	.	.	.	.	.
.	.	.	.	16cc#\JJ	.	.	16ee\JJ	.	.	.	.	.
8AA/	.	8A/	.	16dd\LL	.	.	16ff#\LL	.	.	.	4dd\	4ff#\
.	.	.	.	16dd\	.	.	16ff#\	.	.	.	.	.
8AA/J	.	8A/J	.	16dd\	.	.	16ff#\	.	.	.	.	.
.	.	.	.	16dd\JJ	.	.	16ff#\JJ	.	.	.	.	.
*	*	*	*	*v	*v	*	*	*	*	*	*	*
!	!	!	!	!	!	!LO:LB:g=original	!	!	!	!	!
=113	=113	=113	=113	=113	=113	=113	=113	=113	=113	=113	=113
8AA/L	.	8AL	.	16ee\LL	.	16gg\LL	.	4g/	4dd\	4ee\	4gg\
.	.	.	.	16ee\	.	16gg\	.	.	.	.	.
8AA/	.	8A	.	16ee\	.	16gg\	.	.	.	.	.
.	.	.	.	16ee\JJ	.	16gg\JJ	.	.	.	.	.
8AA/	.	8A	.	16cc#\LL	.	16ee\LL	.	4r	4r	4cc#\	4ee\
.	.	.	.	16cc#\	.	16ee\	.	.	.	.	.
8AA/J	.	8A	.	16cc#\	.	16ee\	.	.	.	.	.
.	.	.	.	16cc#\JJ	.	16ee\JJ	.	.	.	.	.
8AA/L	.	8A	.	16ee\LL	.	16gg\LL	.	2r	2r	4ee\	4gg\
.	.	.	.	16ee\	.	16gg\	.	.	.	.	.
8AA/	.	8A	.	16ee\	.	16gg\	.	.	.	.	.
.	.	.	.	16ee\JJ	.	16gg\JJ	.	.	.	.	.
8AA/	.	8A	.	16ff#\LL	.	16aa\LL	.	.	.	4ff#\	4aa\
.	.	.	.	16ff#\	.	16aa\	.	.	.	.	.
8AA/J	.	8AJ	.	16ff#\	.	16aa\	.	.	.	.	.
.	.	.	.	16ff#\JJ	.	16aa\JJ	.	.	.	.	.
=114	=114	=114	=114	=114	=114	=114	=114	=114	=114	=114	=114
8AA/L	.	8AL	.	16gg\LL	.	16bb\LL	.	1g	1dd	4gg\	4bb\
.	.	.	.	16gg\	.	16bb\	.	.	.	.	.
8AA/	.	8A	.	16gg\	.	16bb\	.	.	.	.	.
.	.	.	.	16gg\JJ	.	16bb\JJ	.	.	.	.	.
8AA/	.	8A	.	16ee\LL	.	16gg\LL	.	.	.	4ee\	4gg\
.	.	.	.	16ee\	.	16gg\	.	.	.	.	.
8AA/J	.	8A	.	16ee\	.	16gg\	.	.	.	.	.
.	.	.	.	16ee\JJ	.	16gg\JJ	.	.	.	.	.
8AA/L	.	8A	.	16gg\LL	.	16bb\LL	.	.	.	4gg\	4bb\
.	.	.	.	16gg\	.	16bb\	.	.	.	.	.
8AA/	.	8A	.	16gg\	.	16bb\	.	.	.	.	.
.	.	.	.	16gg\JJ	.	16bb\JJ	.	.	.	.	.
8AA/	.	8A	.	16ee\LL	.	16ccc#\LL	.	.	.	4ee\	4cc#\
.	.	.	.	16ee\	.	16ccc#\	.	.	.	.	.
8AA/J	.	8AJ	.	16ee\	.	16ccc#\	.	.	.	.	.
.	.	.	.	16ee\JJ	.	16ccc#\JJ	.	.	.	.	.
*Xtremolo	*	*Xtremolo	*	*	*	*Xtremolo	*	*	*	*	*
=115	=115	=115	=115	=115	=115	=115	=115	=115	=115	=115	=115
*	*	*	*	*	*	*^	*	*	*	*	*
8D\L	.	8d\L	.	16ff#\LL	.	4ryy	4ddd\	.	4cc\	4ee\	4ff#\	4dd\
.	.	.	.	16dd\	.	.	.	.	.	.	.	.
8D\	.	8d\	.	16dd\	.	.	.	.	.	.	.	.
.	.	.	.	16dd\JJ	.	.	.	.	.	.	.	.
.	.	.	.	.	.	.	8qqbb/	.	.	.	.	8qqbb/
8F#\	.	8f#\	.	16dd\LL	.	4ryy	8aa\L	.	4r	4r	2dd\	8aa\L
.	.	.	.	16dd\	.	.	.	.	.	.	.	.
8F#\J	.	8f#\J	.	16dd\	.	.	16gg\L	.	.	.	.	16gg\L
.	.	.	.	16dd\JJ	.	.	16ff#\JJ	.	.	.	.	16ff#\JJ
8G\L	.	8g\L	.	16dd\LL	.	4bb/	4dd\	.	2r	2r	.	4bb\
.	.	.	.	16dd\	.	.	.	.	.	.	.	.
8G\	.	8g\	.	16dd\	.	.	.	.	.	.	.	.
.	.	.	.	16dd\	.	.	.	.	.	.	.	.
8B\	.	8b\	.	16dd\	.	4ddd/	4dd 4d/	.	.	.	4dd\	4gg\
.	.	.	.	16dd\	.	.	.	.	.	.	.	.
8B\J	.	8b\J	.	16dd\	.	.	.	.	.	.	.	.
.	.	.	.	16dd\JJ	.	.	.	.	.	.	.	.
*	*	*	*	*Xtremolo	*	*	*	*	*	*	*	*
*	*	*	*	*	*	*v	*v	*	*	*	*	*
=116	=116	=116	=116	=116	=116	=116	=116	=116	=116	=116	=116
*tremolo	*	*tremolo	*	*	*	*	*	*	*	*	*
8A\L	.	8a\L	.	16a\LL	.	16a\LL	.	2cc\	2ee\	2dd\	2ff#\
.	.	.	.	16dd\	.	16dd\	.	.	.	.	.
8A\	.	8a\	.	16ff#\	.	16ff#\	.	.	.	.	.
.	.	.	.	16dd\JJ	.	16dd\JJ	.	.	.	.	.
8A\	.	8a\	.	16ff#\LL	.	16ff#\LL	.	.	.	.	.
.	.	.	.	16dd\	.	16dd\	.	.	.	.	.
8A\J	.	8a\J	.	16ff#\	.	16ff#\	.	.	.	.	.
.	.	.	.	16dd\JJ	.	16dd\JJ	.	.	.	.	.
8AA/L	.	8A/L	.	16a\LL	.	16a\LL	.	2g/	2dd\	2cc#\	2ee\
.	.	.	.	16cc#\	.	16cc#\	.	.	.	.	.
8AA/	.	8A/	.	16ee\	.	16ee\	.	.	.	.	.
.	.	.	.	16cc#\JJ	.	16cc#\JJ	.	.	.	.	.
8AA/	.	8A/	.	16ee\LL	.	16ee\LL	.	.	.	.	.
.	.	.	.	16cc#\	.	16cc#\	.	.	.	.	.
8AA/J	.	8A/J	.	16ee\	.	16ee\	.	.	.	.	.
.	.	.	.	16cc#\JJ	.	16cc#\JJ	.	.	.	.	.
*Xtremolo	*	*Xtremolo	*	*	*	*	*	*	*	*	*
!	!	!	!	!LO:LB:g=original	!	!	!	!	!	!	!
=117	=117	=117	=117	=117	=117	=117	=117	=117	=117	=117	=117
*	*	*	*	*	*	*^	*	*	*	*	*
*	*	*	*	*tremolo	*	*	*	*	*	*	*	*
8D\L	.	8d\L	.	16dd\LL	.	4ff# 4a 4d/	4ryy	.	4e/	4cc\	4dd\	4dd\
.	.	.	.	16dd\	.	.	.	.	.	.	.	.
8D\	.	8d\	.	16dd\	.	.	.	.	.	.	.	.
.	.	.	.	16dd\	.	.	.	.	.	.	.	.
.	.	.	.	.	.	8qqbb/	.	.	.	.	.	8qqbb/
8F#\	.	8f#\	.	16dd\	.	8aa\L	4ryy	.	4r	4r	2dd\	8aa\L
.	.	.	.	16dd\	.	.	.	.	.	.	.	.
8F#\J	.	8f#\J	.	16dd\	.	16gg\L	.	.	.	.	.	16gg\L
.	.	.	.	16dd\JJ	.	16ff#\JJ	.	.	.	.	.	16ff#\JJ
!	!	!	!	!	!	!	!	!	!	!	!	!LO:LB:g=original
8G\L	.	8g\L	.	16dd\LL	.	4bb	4dd\	.	2r	2r	.	4bb\
.	.	.	.	16dd\	.	.	.	.	.	.	.	.
8G\	.	8g\	.	16dd\	.	.	.	.	.	.	.	.
.	.	.	.	16dd\	.	.	.	.	.	.	.	.
8B\	.	8b\	.	16dd\	.	4ddd 4dd 4d/	4ryy	.	.	.	4dd\	4gg\
.	.	.	.	16dd\	.	.	.	.	.	.	.	.
8B\J	.	8b\J	.	16dd\	.	.	.	.	.	.	.	.
.	.	.	.	16dd\JJ	.	.	.	.	.	.	.	.
*	*	*	*	*Xtremolo	*	*	*	*	*	*	*	*
*	*	*	*	*	*	*v	*v	*	*	*	*	*
!	!	!	!	!	!	!	!	!LO:LB:g=original	!	!LO:LB:g=original	!
=118	=118	=118	=118	=118	=118	=118	=118	=118	=118	=118	=118
*tremolo	*	*tremolo	*	*	*	*	*	*	*	*	*
8A\L	.	8a\L	.	16a\LL	.	16a\LL	.	2cc\	2ee\	2dd\	2ff#\
.	.	.	.	16dd\	.	16dd\	.	.	.	.	.
8A\	.	8a\	.	16ff#\	.	16ff#\	.	.	.	.	.
.	.	.	.	16dd\JJ	.	16dd\JJ	.	.	.	.	.
8A\	.	8a\	.	16ff#\LL	.	16ff#\LL	.	.	.	.	.
.	.	.	.	16dd\	.	16dd\	.	.	.	.	.
8A\J	.	8a\J	.	16ff#\	.	16ff#\	.	.	.	.	.
.	.	.	.	16dd\JJ	.	16dd\JJ	.	.	.	.	.
8AA/L	.	8A/L	.	16a\LL	.	16a\LL	.	2g/	2dd\	2cc#\	2ee\
.	.	.	.	16cc#\	.	16cc#\	.	.	.	.	.
8AA/	.	8A/	.	16ee\	.	16ee\	.	.	.	.	.
.	.	.	.	16cc#\JJ	.	16cc#\JJ	.	.	.	.	.
!	!	!	!	!	!	!LO:LB:g=original	!	!	!	!	!
8AA/	.	8A/	.	16ee\LL	.	16ee\LL	.	.	.	.	.
.	.	.	.	16cc#\	.	16cc#\	.	.	.	.	.
8AA/J	.	8A/J	.	16ee\	.	16ee\	.	.	.	.	.
.	.	.	.	16cc#\JJ	.	16cc#\JJ	.	.	.	.	.
=119	=119	=119	=119	=119	=119	=119	=119	=119	=119	=119	=119
8D\L	.	8dL	.	4dd\	.	4dd\	.	4e/	4cc\	4dd\	4dd\
8D\	.	8d	.	.	.	.	.	.	.	.	.
8D\	.	8d	.	16ff#\LL	.	16aa\LL	.	8cc\L	8ee\L	16ff#\LL	16aa\LL
.	.	.	.	16ee\	.	16gg\	.	.	.	16ee\	16gg\
8D\J	.	8d	.	16dd\	.	16ff#\	.	8cc\J	8ee\J	16dd\	16ff#\
.	.	.	.	16ee\JJ	.	16gg\JJ	.	.	.	16ee\JJ	16gg\JJ
8D\L	.	8d	.	4dd\	.	4ff# 4a/	.	4cc\	4ee\	4dd\	4ff#\
8D\	.	8d	.	.	.	.	.	.	.	.	.
8D\	.	8d	.	16ff#\LL	.	16aa\LL	.	8cc\L	8ee\L	16ff#\LL	16aa\LL
.	.	.	.	16ee\	.	16gg\	.	.	.	16ee\	16gg\
8D\J	.	8dJ	.	16dd\	.	16ff#\	.	8cc\J	8ee\J	16dd\	16ff#\
.	.	.	.	16ee\JJ	.	16gg\JJ	.	.	.	16ee\JJ	16gg\JJ
*Xtremolo	*	*Xtremolo	*	*	*	*	*	*	*	*	*
=120	=120	=120	=120	=120	=120	=120	=120	=120	=120	=120	=120
!	!	!	!	!	!	!	!	!	!	!LO:TX:t=P:problem:mixed beam	!LO:TX:t=P:problem:mixed beam
8D\	.	8d\L	.	8dd\	.	8ff# 8a 8d/	.	8cc\	8ee\	8dd\L	8ff#\L
8D\L	.	8d\	.	8d/L	.	8d/L|	.	8cc\L	8cc\L	8d/	8d/
8F#\	.	8f#\	.	8f#/	.	8f#/|	.	8ee\	8ee\	8f#/	8f#/
8A\J	.	8a\J	.	8a/J	.	8a/J|	.	8gg\J	8gg\J	8a/J	8a/J
!	!	!LO:LB:g=original	!	!	!	!	!	!LO:TX:t=P:problem:mixed beam	!	!	!
8F#\L	.	8f#\L	.	8f#/L	.	8f#/L|	.	8ee\L	8ee\L	8f#/L	8f#/L
8D\	.	8d\	.	8d/	.	8d/|	.	8c/	8cc\	8d/	8d/
8F#\	.	8f#\	.	8f#/	.	8f#/|	.	8e/	8ee\	8f#/	8f#/
8A\J	.	8a\J	.	8a/J	.	8a/J|	.	8g/J	8gg\J	8a/J	8a/J
!	!	!	!	!	!	!	!	!	!LO:LB:g=original	!	!
=121	=121	=121	=121	=121	=121	=121	=121	=121	=121	=121	=121
*	*	*	*	*^	*	*	*	*	*	*	*
4D\	.	4d\	.	4ff#/	1a 1d	.	4ff# 4a 4d/	.	4cc\	4ee\	4a/	4ff#\
4D\	.	4d\	.	4ff#/	.	.	4ff# 4a 4d/	.	4cc\	4ee\	4a/	4ff#\
4D\	.	4d\	.	4ff#/	.	.	4ff# 4a 4d/	.	4cc\	4ee\	4a/	4ff#\
4D\	.	4d\	.	4ff#/	.	.	4ff# 4a 4d/	.	4cc\	4ee\	4a/	4ff#\
=122	=122	=122	=122	=122	=122	=122	=122	=122	=122	=122	=122	=122
2D\	.	2d\	.	2ff# 2a 2d/	1ryy	.	2ff# 2a 2d/	.	1cc	1ee	1a	1ff#
!	!	!LO:TX:b:I:t=Andante Segui verte	!	!	!	!	!	!	!LO:TX:b:i:t=Andante Tacett Allo Verte.	!LO:TX:b:i:t=Andante Tacett Allo Verte	!LO:TX:b:i:t=Andante Tacett\n Allo Segui	!LO:TX:b:i:t=Andantino Tacett\n Allo Segue
2r	.	2r	.	2r	.	.	2r	.	.	.	.	.
*	*	*	*	*v	*v	*	*	*	*	*	*	*
==	==	==	==	==	==	==	==	==	==	==	==
*-	*-	*-	*-	*-	*-	*-	*-	*-	*-	*-	*-
!!!system-decoration: [g1][g2][g3]s8
!!!RDF**kern: > = above
!!!RDF**kern: < = below
!!!AIN: 1 cor 2 empty 2 oboe 1 viola 2 violn
!!!ENC: Marta Lawrence
!!!END: 2020-10-24
!!!ENC: Andrzej Gręziak
!!!END: 2020-06-04
!!!RDF**kern: | = vertical stroke
